(Generated by PartKam Version 0.05)

G21 G90 G40

(follow path 1)
G0 Z0
T0 M6
G17
M3
G0 X1.4129441624365482 Y3.082233502538071
G1 Z-0.2 F50
G1 X1.7868020304568528 Y2.230964467005076 F50
G1 X2.7106598984771573 Y2.33248730964467
G1 X2.1624365482233503 Y1.5812182741116751
G1 X2.7106598984771573 Y0.83248730964467
G1 X1.7868020304568528 Y0.9314720812182741
G1 X1.4137055837563453 Y0.08121827411167513
G1 X1.0380710659898478 Y0.9314720812182741
G1 X0.11421319796954314 Y0.83248730964467
G1 X0.6624365482233502 Y1.5812182741116751
G1 X0.11421319796954314 Y2.33248730964467
G1 X1.0380710659898478 Y2.230964467005076
G1 X1.4137055837563453 Y3.081218274111675
G0 Z0
G0 X1.4129441624365482 Y3.082233502538071
G1 Z-0.4 F50
G1 X1.7868020304568528 Y2.230964467005076 F50
G1 X2.7106598984771573 Y2.33248730964467
G1 X2.1624365482233503 Y1.5812182741116751
G1 X2.7106598984771573 Y0.83248730964467
G1 X1.7868020304568528 Y0.9314720812182741
G1 X1.4137055837563453 Y0.08121827411167513
G1 X1.0380710659898478 Y0.9314720812182741
G1 X0.11421319796954314 Y0.83248730964467
G1 X0.6624365482233502 Y1.5812182741116751
G1 X0.11421319796954314 Y2.33248730964467
G1 X1.0380710659898478 Y2.230964467005076
G1 X1.4137055837563453 Y3.081218274111675
G0 Z0
G0 X1.4129441624365482 Y3.082233502538071
G1 Z-0.6 F50
G1 X1.7868020304568528 Y2.230964467005076 F50
G1 X2.7106598984771573 Y2.33248730964467
G1 X2.1624365482233503 Y1.5812182741116751
G1 X2.7106598984771573 Y0.83248730964467
G1 X1.7868020304568528 Y0.9314720812182741
G1 X1.4137055837563453 Y0.08121827411167513
G1 X1.0380710659898478 Y0.9314720812182741
G1 X0.11421319796954314 Y0.83248730964467
G1 X0.6624365482233502 Y1.5812182741116751
G1 X0.11421319796954314 Y2.33248730964467
G1 X1.0380710659898478 Y2.230964467005076
G1 X1.4137055837563453 Y3.081218274111675
G0 Z0
G0 X1.4129441624365482 Y3.082233502538071
G1 Z-0.8 F50
G1 X1.7868020304568528 Y2.230964467005076 F50
G1 X2.7106598984771573 Y2.33248730964467
G1 X2.1624365482233503 Y1.5812182741116751
G1 X2.7106598984771573 Y0.83248730964467
G1 X1.7868020304568528 Y0.9314720812182741
G1 X1.4137055837563453 Y0.08121827411167513
G1 X1.0380710659898478 Y0.9314720812182741
G1 X0.11421319796954314 Y0.83248730964467
G1 X0.6624365482233502 Y1.5812182741116751
G1 X0.11421319796954314 Y2.33248730964467
G1 X1.0380710659898478 Y2.230964467005076
G1 X1.4137055837563453 Y3.081218274111675
G0 Z0
G0 X1.4129441624365482 Y3.082233502538071
G1 Z-1 F50
G1 X1.7868020304568528 Y2.230964467005076 F50
G1 X2.7106598984771573 Y2.33248730964467
G1 X2.1624365482233503 Y1.5812182741116751
G1 X2.7106598984771573 Y0.83248730964467
G1 X1.7868020304568528 Y0.9314720812182741
G1 X1.4137055837563453 Y0.08121827411167513
G1 X1.0380710659898478 Y0.9314720812182741
G1 X0.11421319796954314 Y0.83248730964467
G1 X0.6624365482233502 Y1.5812182741116751
G1 X0.11421319796954314 Y2.33248730964467
G1 X1.0380710659898478 Y2.230964467005076
G1 X1.4137055837563453 Y3.081218274111675
G0 Z0
G0 X1.4129441624365482 Y3.082233502538071
G1 Z-1.2 F50
G1 X1.7868020304568528 Y2.230964467005076 F50
G1 X2.7106598984771573 Y2.33248730964467
G1 X2.1624365482233503 Y1.5812182741116751
G1 X2.7106598984771573 Y0.83248730964467
G1 X1.7868020304568528 Y0.9314720812182741
G1 X1.4137055837563453 Y0.08121827411167513
G1 X1.0380710659898478 Y0.9314720812182741
G1 X0.11421319796954314 Y0.83248730964467
G1 X0.6624365482233502 Y1.5812182741116751
G1 X0.11421319796954314 Y2.33248730964467
G1 X1.0380710659898478 Y2.230964467005076
G1 X1.4137055837563453 Y3.081218274111675
G0 Z0
G0 X1.4129441624365482 Y3.082233502538071
G1 Z-1.4 F50
G1 X1.7868020304568528 Y2.230964467005076 F50
G1 X2.7106598984771573 Y2.33248730964467
G1 X2.1624365482233503 Y1.5812182741116751
G1 X2.7106598984771573 Y0.83248730964467
G1 X1.7868020304568528 Y0.9314720812182741
G1 X1.4137055837563453 Y0.08121827411167513
G1 X1.0380710659898478 Y0.9314720812182741
G1 X0.11421319796954314 Y0.83248730964467
G1 X0.6624365482233502 Y1.5812182741116751
G1 X0.11421319796954314 Y2.33248730964467
G1 X1.0380710659898478 Y2.230964467005076
G1 X1.4137055837563453 Y3.081218274111675
G0 Z0
G0 X1.4129441624365482 Y3.082233502538071
G1 Z-1.6 F50
G1 X1.7868020304568528 Y2.230964467005076 F50
G1 X2.7106598984771573 Y2.33248730964467
G1 X2.1624365482233503 Y1.5812182741116751
G1 X2.7106598984771573 Y0.83248730964467
G1 X1.7868020304568528 Y0.9314720812182741
G1 X1.4137055837563453 Y0.08121827411167513
G1 X1.0380710659898478 Y0.9314720812182741
G1 X0.11421319796954314 Y0.83248730964467
G1 X0.6624365482233502 Y1.5812182741116751
G1 X0.11421319796954314 Y2.33248730964467
G1 X1.0380710659898478 Y2.230964467005076
G1 X1.4137055837563453 Y3.081218274111675
G0 Z0
G0 X1.4129441624365482 Y3.082233502538071
G1 Z-1.8 F50
G1 X1.7868020304568528 Y2.230964467005076 F50
G1 X2.7106598984771573 Y2.33248730964467
G1 X2.1624365482233503 Y1.5812182741116751
G1 X2.7106598984771573 Y0.83248730964467
G1 X1.7868020304568528 Y0.9314720812182741
G1 X1.4137055837563453 Y0.08121827411167513
G1 X1.0380710659898478 Y0.9314720812182741
G1 X0.11421319796954314 Y0.83248730964467
G1 X0.6624365482233502 Y1.5812182741116751
G1 X0.11421319796954314 Y2.33248730964467
G1 X1.0380710659898478 Y2.230964467005076
G1 X1.4137055837563453 Y3.081218274111675
G0 Z0
G0 X1.4129441624365482 Y3.082233502538071
G1 Z-2 F50
G1 X1.7868020304568528 Y2.230964467005076 F50
G1 X2.7106598984771573 Y2.33248730964467
G1 X2.1624365482233503 Y1.5812182741116751
G1 X2.7106598984771573 Y0.83248730964467
G1 X1.7868020304568528 Y0.9314720812182741
G1 X1.4137055837563453 Y0.08121827411167513
G1 X1.0380710659898478 Y0.9314720812182741
G1 X0.11421319796954314 Y0.83248730964467
G1 X0.6624365482233502 Y1.5812182741116751
G1 X0.11421319796954314 Y2.33248730964467
G1 X1.0380710659898478 Y2.230964467005076
G1 X1.4137055837563453 Y3.081218274111675
G0 Z0
M5
M30
