(Generated by PartKam Version 0.05)

G21 G90 G40

(follow path 1)
G0 Z0.2
T0 M6
G17
G0 X4.461928934010152 Y10.181218274111675
G1 Z0.2 F50
M3
G1 X5.713197969543147 Y7.345177664974619 F50
G1 X8.791878172588833 Y7.680203045685278
G1 X6.961928934010152 Y5.180203045685278
G1 X8.791878172588833 Y2.6802030456852792
G1 X5.713197969543147 Y3.015228426395939
G1 X4.461928934010152 Y0.1802030456852792
G1 X3.213197969543147 Y3.015228426395939
G1 X0.1319796954314721 Y2.6802030456852792
G1 X1.9619289340101522 Y5.180203045685278
G1 X0.1319796954314721 Y7.680203045685278
G1 X3.213197969543147 Y7.345177664974619
G1 X4.461928934010152 Y10.180203045685278
M5
G0 X4.461928934010152 Y10.181218274111675
G1 Z0.4 F50
M3
G1 X5.713197969543147 Y7.345177664974619 F50
G1 X8.791878172588833 Y7.680203045685278
G1 X6.961928934010152 Y5.180203045685278
G1 X8.791878172588833 Y2.6802030456852792
G1 X5.713197969543147 Y3.015228426395939
G1 X4.461928934010152 Y0.1802030456852792
G1 X3.213197969543147 Y3.015228426395939
G1 X0.1319796954314721 Y2.6802030456852792
G1 X1.9619289340101522 Y5.180203045685278
G1 X0.1319796954314721 Y7.680203045685278
G1 X3.213197969543147 Y7.345177664974619
G1 X4.461928934010152 Y10.180203045685278
M5
G0 X4.461928934010152 Y10.181218274111675
G1 Z0.6 F50
M3
G1 X5.713197969543147 Y7.345177664974619 F50
G1 X8.791878172588833 Y7.680203045685278
G1 X6.961928934010152 Y5.180203045685278
G1 X8.791878172588833 Y2.6802030456852792
G1 X5.713197969543147 Y3.015228426395939
G1 X4.461928934010152 Y0.1802030456852792
G1 X3.213197969543147 Y3.015228426395939
G1 X0.1319796954314721 Y2.6802030456852792
G1 X1.9619289340101522 Y5.180203045685278
G1 X0.1319796954314721 Y7.680203045685278
G1 X3.213197969543147 Y7.345177664974619
G1 X4.461928934010152 Y10.180203045685278
M5
G0 X4.461928934010152 Y10.181218274111675
G1 Z0.8 F50
M3
G1 X5.713197969543147 Y7.345177664974619 F50
G1 X8.791878172588833 Y7.680203045685278
G1 X6.961928934010152 Y5.180203045685278
G1 X8.791878172588833 Y2.6802030456852792
G1 X5.713197969543147 Y3.015228426395939
G1 X4.461928934010152 Y0.1802030456852792
G1 X3.213197969543147 Y3.015228426395939
G1 X0.1319796954314721 Y2.6802030456852792
G1 X1.9619289340101522 Y5.180203045685278
G1 X0.1319796954314721 Y7.680203045685278
G1 X3.213197969543147 Y7.345177664974619
G1 X4.461928934010152 Y10.180203045685278
M5
G0 X4.461928934010152 Y10.181218274111675
G1 Z1 F50
M3
G1 X5.713197969543147 Y7.345177664974619 F50
G1 X8.791878172588833 Y7.680203045685278
G1 X6.961928934010152 Y5.180203045685278
G1 X8.791878172588833 Y2.6802030456852792
G1 X5.713197969543147 Y3.015228426395939
G1 X4.461928934010152 Y0.1802030456852792
G1 X3.213197969543147 Y3.015228426395939
G1 X0.1319796954314721 Y2.6802030456852792
G1 X1.9619289340101522 Y5.180203045685278
G1 X0.1319796954314721 Y7.680203045685278
G1 X3.213197969543147 Y7.345177664974619
G1 X4.461928934010152 Y10.180203045685278
M5
G0 X4.461928934010152 Y10.181218274111675
G1 Z1.2 F50
M3
G1 X5.713197969543147 Y7.345177664974619 F50
G1 X8.791878172588833 Y7.680203045685278
G1 X6.961928934010152 Y5.180203045685278
G1 X8.791878172588833 Y2.6802030456852792
G1 X5.713197969543147 Y3.015228426395939
G1 X4.461928934010152 Y0.1802030456852792
G1 X3.213197969543147 Y3.015228426395939
G1 X0.1319796954314721 Y2.6802030456852792
G1 X1.9619289340101522 Y5.180203045685278
G1 X0.1319796954314721 Y7.680203045685278
G1 X3.213197969543147 Y7.345177664974619
G1 X4.461928934010152 Y10.180203045685278
M5
G0 X4.461928934010152 Y10.181218274111675
G1 Z1.4 F50
M3
G1 X5.713197969543147 Y7.345177664974619 F50
G1 X8.791878172588833 Y7.680203045685278
G1 X6.961928934010152 Y5.180203045685278
G1 X8.791878172588833 Y2.6802030456852792
G1 X5.713197969543147 Y3.015228426395939
G1 X4.461928934010152 Y0.1802030456852792
G1 X3.213197969543147 Y3.015228426395939
G1 X0.1319796954314721 Y2.6802030456852792
G1 X1.9619289340101522 Y5.180203045685278
G1 X0.1319796954314721 Y7.680203045685278
G1 X3.213197969543147 Y7.345177664974619
G1 X4.461928934010152 Y10.180203045685278
M5
G0 X4.461928934010152 Y10.181218274111675
G1 Z1.6 F50
M3
G1 X5.713197969543147 Y7.345177664974619 F50
G1 X8.791878172588833 Y7.680203045685278
G1 X6.961928934010152 Y5.180203045685278
G1 X8.791878172588833 Y2.6802030456852792
G1 X5.713197969543147 Y3.015228426395939
G1 X4.461928934010152 Y0.1802030456852792
G1 X3.213197969543147 Y3.015228426395939
G1 X0.1319796954314721 Y2.6802030456852792
G1 X1.9619289340101522 Y5.180203045685278
G1 X0.1319796954314721 Y7.680203045685278
G1 X3.213197969543147 Y7.345177664974619
G1 X4.461928934010152 Y10.180203045685278
M5
G0 X4.461928934010152 Y10.181218274111675
G1 Z1.8 F50
M3
G1 X5.713197969543147 Y7.345177664974619 F50
G1 X8.791878172588833 Y7.680203045685278
G1 X6.961928934010152 Y5.180203045685278
G1 X8.791878172588833 Y2.6802030456852792
G1 X5.713197969543147 Y3.015228426395939
G1 X4.461928934010152 Y0.1802030456852792
G1 X3.213197969543147 Y3.015228426395939
G1 X0.1319796954314721 Y2.6802030456852792
G1 X1.9619289340101522 Y5.180203045685278
G1 X0.1319796954314721 Y7.680203045685278
G1 X3.213197969543147 Y7.345177664974619
G1 X4.461928934010152 Y10.180203045685278
M5
G0 X4.461928934010152 Y10.181218274111675
G1 Z2 F50
M3
G1 X5.713197969543147 Y7.345177664974619 F50
G1 X8.791878172588833 Y7.680203045685278
G1 X6.961928934010152 Y5.180203045685278
G1 X8.791878172588833 Y2.6802030456852792
G1 X5.713197969543147 Y3.015228426395939
G1 X4.461928934010152 Y0.1802030456852792
G1 X3.213197969543147 Y3.015228426395939
G1 X0.1319796954314721 Y2.6802030456852792
G1 X1.9619289340101522 Y5.180203045685278
G1 X0.1319796954314721 Y7.680203045685278
G1 X3.213197969543147 Y7.345177664974619
G1 X4.461928934010152 Y10.180203045685278
M5
G0 X4.461928934010152 Y10.181218274111675
G1 Z2.2 F50
M3
G1 X5.713197969543147 Y7.345177664974619 F50
G1 X8.791878172588833 Y7.680203045685278
G1 X6.961928934010152 Y5.180203045685278
G1 X8.791878172588833 Y2.6802030456852792
G1 X5.713197969543147 Y3.015228426395939
G1 X4.461928934010152 Y0.1802030456852792
G1 X3.213197969543147 Y3.015228426395939
G1 X0.1319796954314721 Y2.6802030456852792
G1 X1.9619289340101522 Y5.180203045685278
G1 X0.1319796954314721 Y7.680203045685278
G1 X3.213197969543147 Y7.345177664974619
G1 X4.461928934010152 Y10.180203045685278
M5
G0 X4.461928934010152 Y10.181218274111675
G1 Z2.4 F50
M3
G1 X5.713197969543147 Y7.345177664974619 F50
G1 X8.791878172588833 Y7.680203045685278
G1 X6.961928934010152 Y5.180203045685278
G1 X8.791878172588833 Y2.6802030456852792
G1 X5.713197969543147 Y3.015228426395939
G1 X4.461928934010152 Y0.1802030456852792
G1 X3.213197969543147 Y3.015228426395939
G1 X0.1319796954314721 Y2.6802030456852792
G1 X1.9619289340101522 Y5.180203045685278
G1 X0.1319796954314721 Y7.680203045685278
G1 X3.213197969543147 Y7.345177664974619
G1 X4.461928934010152 Y10.180203045685278
M5
G0 X4.461928934010152 Y10.181218274111675
G1 Z2.6 F50
M3
G1 X5.713197969543147 Y7.345177664974619 F50
G1 X8.791878172588833 Y7.680203045685278
G1 X6.961928934010152 Y5.180203045685278
G1 X8.791878172588833 Y2.6802030456852792
G1 X5.713197969543147 Y3.015228426395939
G1 X4.461928934010152 Y0.1802030456852792
G1 X3.213197969543147 Y3.015228426395939
G1 X0.1319796954314721 Y2.6802030456852792
G1 X1.9619289340101522 Y5.180203045685278
G1 X0.1319796954314721 Y7.680203045685278
G1 X3.213197969543147 Y7.345177664974619
G1 X4.461928934010152 Y10.180203045685278
M5
G0 X4.461928934010152 Y10.181218274111675
G1 Z2.8 F50
M3
G1 X5.713197969543147 Y7.345177664974619 F50
G1 X8.791878172588833 Y7.680203045685278
G1 X6.961928934010152 Y5.180203045685278
G1 X8.791878172588833 Y2.6802030456852792
G1 X5.713197969543147 Y3.015228426395939
G1 X4.461928934010152 Y0.1802030456852792
G1 X3.213197969543147 Y3.015228426395939
G1 X0.1319796954314721 Y2.6802030456852792
G1 X1.9619289340101522 Y5.180203045685278
G1 X0.1319796954314721 Y7.680203045685278
G1 X3.213197969543147 Y7.345177664974619
G1 X4.461928934010152 Y10.180203045685278
M5
G0 X4.461928934010152 Y10.181218274111675
G1 Z3 F50
M3
G1 X5.713197969543147 Y7.345177664974619 F50
G1 X8.791878172588833 Y7.680203045685278
G1 X6.961928934010152 Y5.180203045685278
G1 X8.791878172588833 Y2.6802030456852792
G1 X5.713197969543147 Y3.015228426395939
G1 X4.461928934010152 Y0.1802030456852792
G1 X3.213197969543147 Y3.015228426395939
G1 X0.1319796954314721 Y2.6802030456852792
G1 X1.9619289340101522 Y5.180203045685278
G1 X0.1319796954314721 Y7.680203045685278
G1 X3.213197969543147 Y7.345177664974619
G1 X4.461928934010152 Y10.180203045685278
M5
G0 X4.461928934010152 Y10.181218274111675
G1 Z3.2 F50
M3
G1 X5.713197969543147 Y7.345177664974619 F50
G1 X8.791878172588833 Y7.680203045685278
G1 X6.961928934010152 Y5.180203045685278
G1 X8.791878172588833 Y2.6802030456852792
G1 X5.713197969543147 Y3.015228426395939
G1 X4.461928934010152 Y0.1802030456852792
G1 X3.213197969543147 Y3.015228426395939
G1 X0.1319796954314721 Y2.6802030456852792
G1 X1.9619289340101522 Y5.180203045685278
G1 X0.1319796954314721 Y7.680203045685278
G1 X3.213197969543147 Y7.345177664974619
G1 X4.461928934010152 Y10.180203045685278
M5
G0 X4.461928934010152 Y10.181218274111675
G1 Z3.4 F50
M3
G1 X5.713197969543147 Y7.345177664974619 F50
G1 X8.791878172588833 Y7.680203045685278
G1 X6.961928934010152 Y5.180203045685278
G1 X8.791878172588833 Y2.6802030456852792
G1 X5.713197969543147 Y3.015228426395939
G1 X4.461928934010152 Y0.1802030456852792
G1 X3.213197969543147 Y3.015228426395939
G1 X0.1319796954314721 Y2.6802030456852792
G1 X1.9619289340101522 Y5.180203045685278
G1 X0.1319796954314721 Y7.680203045685278
G1 X3.213197969543147 Y7.345177664974619
G1 X4.461928934010152 Y10.180203045685278
M5
G0 X4.461928934010152 Y10.181218274111675
G1 Z3.6 F50
M3
G1 X5.713197969543147 Y7.345177664974619 F50
G1 X8.791878172588833 Y7.680203045685278
G1 X6.961928934010152 Y5.180203045685278
G1 X8.791878172588833 Y2.6802030456852792
G1 X5.713197969543147 Y3.015228426395939
G1 X4.461928934010152 Y0.1802030456852792
G1 X3.213197969543147 Y3.015228426395939
G1 X0.1319796954314721 Y2.6802030456852792
G1 X1.9619289340101522 Y5.180203045685278
G1 X0.1319796954314721 Y7.680203045685278
G1 X3.213197969543147 Y7.345177664974619
G1 X4.461928934010152 Y10.180203045685278
M5
G0 X4.461928934010152 Y10.181218274111675
G1 Z3.8 F50
M3
G1 X5.713197969543147 Y7.345177664974619 F50
G1 X8.791878172588833 Y7.680203045685278
G1 X6.961928934010152 Y5.180203045685278
G1 X8.791878172588833 Y2.6802030456852792
G1 X5.713197969543147 Y3.015228426395939
G1 X4.461928934010152 Y0.1802030456852792
G1 X3.213197969543147 Y3.015228426395939
G1 X0.1319796954314721 Y2.6802030456852792
G1 X1.9619289340101522 Y5.180203045685278
G1 X0.1319796954314721 Y7.680203045685278
G1 X3.213197969543147 Y7.345177664974619
G1 X4.461928934010152 Y10.180203045685278
M5
G0 X4.461928934010152 Y10.181218274111675
G1 Z4 F50
M3
G1 X5.713197969543147 Y7.345177664974619 F50
G1 X8.791878172588833 Y7.680203045685278
G1 X6.961928934010152 Y5.180203045685278
G1 X8.791878172588833 Y2.6802030456852792
G1 X5.713197969543147 Y3.015228426395939
G1 X4.461928934010152 Y0.1802030456852792
G1 X3.213197969543147 Y3.015228426395939
G1 X0.1319796954314721 Y2.6802030456852792
G1 X1.9619289340101522 Y5.180203045685278
G1 X0.1319796954314721 Y7.680203045685278
G1 X3.213197969543147 Y7.345177664974619
G1 X4.461928934010152 Y10.180203045685278
M5
G0 X4.461928934010152 Y10.181218274111675
G1 Z4.2 F50
M3
G1 X5.713197969543147 Y7.345177664974619 F50
G1 X8.791878172588833 Y7.680203045685278
G1 X6.961928934010152 Y5.180203045685278
G1 X8.791878172588833 Y2.6802030456852792
G1 X5.713197969543147 Y3.015228426395939
G1 X4.461928934010152 Y0.1802030456852792
G1 X3.213197969543147 Y3.015228426395939
G1 X0.1319796954314721 Y2.6802030456852792
G1 X1.9619289340101522 Y5.180203045685278
G1 X0.1319796954314721 Y7.680203045685278
G1 X3.213197969543147 Y7.345177664974619
G1 X4.461928934010152 Y10.180203045685278
M5
G0 X4.461928934010152 Y10.181218274111675
G1 Z4.4 F50
M3
G1 X5.713197969543147 Y7.345177664974619 F50
G1 X8.791878172588833 Y7.680203045685278
G1 X6.961928934010152 Y5.180203045685278
G1 X8.791878172588833 Y2.6802030456852792
G1 X5.713197969543147 Y3.015228426395939
G1 X4.461928934010152 Y0.1802030456852792
G1 X3.213197969543147 Y3.015228426395939
G1 X0.1319796954314721 Y2.6802030456852792
G1 X1.9619289340101522 Y5.180203045685278
G1 X0.1319796954314721 Y7.680203045685278
G1 X3.213197969543147 Y7.345177664974619
G1 X4.461928934010152 Y10.180203045685278
M5
G0 X4.461928934010152 Y10.181218274111675
G1 Z4.6 F50
M3
G1 X5.713197969543147 Y7.345177664974619 F50
G1 X8.791878172588833 Y7.680203045685278
G1 X6.961928934010152 Y5.180203045685278
G1 X8.791878172588833 Y2.6802030456852792
G1 X5.713197969543147 Y3.015228426395939
G1 X4.461928934010152 Y0.1802030456852792
G1 X3.213197969543147 Y3.015228426395939
G1 X0.1319796954314721 Y2.6802030456852792
G1 X1.9619289340101522 Y5.180203045685278
G1 X0.1319796954314721 Y7.680203045685278
G1 X3.213197969543147 Y7.345177664974619
G1 X4.461928934010152 Y10.180203045685278
M5
G0 X4.461928934010152 Y10.181218274111675
G1 Z4.8 F50
M3
G1 X5.713197969543147 Y7.345177664974619 F50
G1 X8.791878172588833 Y7.680203045685278
G1 X6.961928934010152 Y5.180203045685278
G1 X8.791878172588833 Y2.6802030456852792
G1 X5.713197969543147 Y3.015228426395939
G1 X4.461928934010152 Y0.1802030456852792
G1 X3.213197969543147 Y3.015228426395939
G1 X0.1319796954314721 Y2.6802030456852792
G1 X1.9619289340101522 Y5.180203045685278
G1 X0.1319796954314721 Y7.680203045685278
G1 X3.213197969543147 Y7.345177664974619
G1 X4.461928934010152 Y10.180203045685278
M5
G0 X4.461928934010152 Y10.181218274111675
G1 Z5 F50
M3
G1 X5.713197969543147 Y7.345177664974619 F50
G1 X8.791878172588833 Y7.680203045685278
G1 X6.961928934010152 Y5.180203045685278
G1 X8.791878172588833 Y2.6802030456852792
G1 X5.713197969543147 Y3.015228426395939
G1 X4.461928934010152 Y0.1802030456852792
G1 X3.213197969543147 Y3.015228426395939
G1 X0.1319796954314721 Y2.6802030456852792
G1 X1.9619289340101522 Y5.180203045685278
G1 X0.1319796954314721 Y7.680203045685278
G1 X3.213197969543147 Y7.345177664974619
G1 X4.461928934010152 Y10.180203045685278
M5
G0 X4.461928934010152 Y10.181218274111675
G1 Z5.2 F50
M3
G1 X5.713197969543147 Y7.345177664974619 F50
G1 X8.791878172588833 Y7.680203045685278
G1 X6.961928934010152 Y5.180203045685278
G1 X8.791878172588833 Y2.6802030456852792
G1 X5.713197969543147 Y3.015228426395939
G1 X4.461928934010152 Y0.1802030456852792
G1 X3.213197969543147 Y3.015228426395939
G1 X0.1319796954314721 Y2.6802030456852792
G1 X1.9619289340101522 Y5.180203045685278
G1 X0.1319796954314721 Y7.680203045685278
G1 X3.213197969543147 Y7.345177664974619
G1 X4.461928934010152 Y10.180203045685278
M5
G0 X4.461928934010152 Y10.181218274111675
G1 Z5.4 F50
M3
G1 X5.713197969543147 Y7.345177664974619 F50
G1 X8.791878172588833 Y7.680203045685278
G1 X6.961928934010152 Y5.180203045685278
G1 X8.791878172588833 Y2.6802030456852792
G1 X5.713197969543147 Y3.015228426395939
G1 X4.461928934010152 Y0.1802030456852792
G1 X3.213197969543147 Y3.015228426395939
G1 X0.1319796954314721 Y2.6802030456852792
G1 X1.9619289340101522 Y5.180203045685278
G1 X0.1319796954314721 Y7.680203045685278
G1 X3.213197969543147 Y7.345177664974619
G1 X4.461928934010152 Y10.180203045685278
M5
G0 X4.461928934010152 Y10.181218274111675
G1 Z5.6 F50
M3
G1 X5.713197969543147 Y7.345177664974619 F50
G1 X8.791878172588833 Y7.680203045685278
G1 X6.961928934010152 Y5.180203045685278
G1 X8.791878172588833 Y2.6802030456852792
G1 X5.713197969543147 Y3.015228426395939
G1 X4.461928934010152 Y0.1802030456852792
G1 X3.213197969543147 Y3.015228426395939
G1 X0.1319796954314721 Y2.6802030456852792
G1 X1.9619289340101522 Y5.180203045685278
G1 X0.1319796954314721 Y7.680203045685278
G1 X3.213197969543147 Y7.345177664974619
G1 X4.461928934010152 Y10.180203045685278
M5
G0 X4.461928934010152 Y10.181218274111675
G1 Z5.8 F50
M3
G1 X5.713197969543147 Y7.345177664974619 F50
G1 X8.791878172588833 Y7.680203045685278
G1 X6.961928934010152 Y5.180203045685278
G1 X8.791878172588833 Y2.6802030456852792
G1 X5.713197969543147 Y3.015228426395939
G1 X4.461928934010152 Y0.1802030456852792
G1 X3.213197969543147 Y3.015228426395939
G1 X0.1319796954314721 Y2.6802030456852792
G1 X1.9619289340101522 Y5.180203045685278
G1 X0.1319796954314721 Y7.680203045685278
G1 X3.213197969543147 Y7.345177664974619
G1 X4.461928934010152 Y10.180203045685278
M5
G0 X4.461928934010152 Y10.181218274111675
G1 Z6 F50
M3
G1 X5.713197969543147 Y7.345177664974619 F50
G1 X8.791878172588833 Y7.680203045685278
G1 X6.961928934010152 Y5.180203045685278
G1 X8.791878172588833 Y2.6802030456852792
G1 X5.713197969543147 Y3.015228426395939
G1 X4.461928934010152 Y0.1802030456852792
G1 X3.213197969543147 Y3.015228426395939
G1 X0.1319796954314721 Y2.6802030456852792
G1 X1.9619289340101522 Y5.180203045685278
G1 X0.1319796954314721 Y7.680203045685278
G1 X3.213197969543147 Y7.345177664974619
G1 X4.461928934010152 Y10.180203045685278
M5
G0 X4.461928934010152 Y10.181218274111675
G1 Z6.2 F50
M3
G1 X5.713197969543147 Y7.345177664974619 F50
G1 X8.791878172588833 Y7.680203045685278
G1 X6.961928934010152 Y5.180203045685278
G1 X8.791878172588833 Y2.6802030456852792
G1 X5.713197969543147 Y3.015228426395939
G1 X4.461928934010152 Y0.1802030456852792
G1 X3.213197969543147 Y3.015228426395939
G1 X0.1319796954314721 Y2.6802030456852792
G1 X1.9619289340101522 Y5.180203045685278
G1 X0.1319796954314721 Y7.680203045685278
G1 X3.213197969543147 Y7.345177664974619
G1 X4.461928934010152 Y10.180203045685278
M5
G0 X4.461928934010152 Y10.181218274111675
G1 Z6.4 F50
M3
G1 X5.713197969543147 Y7.345177664974619 F50
G1 X8.791878172588833 Y7.680203045685278
G1 X6.961928934010152 Y5.180203045685278
G1 X8.791878172588833 Y2.6802030456852792
G1 X5.713197969543147 Y3.015228426395939
G1 X4.461928934010152 Y0.1802030456852792
G1 X3.213197969543147 Y3.015228426395939
G1 X0.1319796954314721 Y2.6802030456852792
G1 X1.9619289340101522 Y5.180203045685278
G1 X0.1319796954314721 Y7.680203045685278
G1 X3.213197969543147 Y7.345177664974619
G1 X4.461928934010152 Y10.180203045685278
M5
G0 X4.461928934010152 Y10.181218274111675
G1 Z6.6 F50
M3
G1 X5.713197969543147 Y7.345177664974619 F50
G1 X8.791878172588833 Y7.680203045685278
G1 X6.961928934010152 Y5.180203045685278
G1 X8.791878172588833 Y2.6802030456852792
G1 X5.713197969543147 Y3.015228426395939
G1 X4.461928934010152 Y0.1802030456852792
G1 X3.213197969543147 Y3.015228426395939
G1 X0.1319796954314721 Y2.6802030456852792
G1 X1.9619289340101522 Y5.180203045685278
G1 X0.1319796954314721 Y7.680203045685278
G1 X3.213197969543147 Y7.345177664974619
G1 X4.461928934010152 Y10.180203045685278
M5
G0 X4.461928934010152 Y10.181218274111675
G1 Z6.8 F50
M3
G1 X5.713197969543147 Y7.345177664974619 F50
G1 X8.791878172588833 Y7.680203045685278
G1 X6.961928934010152 Y5.180203045685278
G1 X8.791878172588833 Y2.6802030456852792
G1 X5.713197969543147 Y3.015228426395939
G1 X4.461928934010152 Y0.1802030456852792
G1 X3.213197969543147 Y3.015228426395939
G1 X0.1319796954314721 Y2.6802030456852792
G1 X1.9619289340101522 Y5.180203045685278
G1 X0.1319796954314721 Y7.680203045685278
G1 X3.213197969543147 Y7.345177664974619
G1 X4.461928934010152 Y10.180203045685278
M5
G0 X4.461928934010152 Y10.181218274111675
G1 Z7 F50
M3
G1 X5.713197969543147 Y7.345177664974619 F50
G1 X8.791878172588833 Y7.680203045685278
G1 X6.961928934010152 Y5.180203045685278
G1 X8.791878172588833 Y2.6802030456852792
G1 X5.713197969543147 Y3.015228426395939
G1 X4.461928934010152 Y0.1802030456852792
G1 X3.213197969543147 Y3.015228426395939
G1 X0.1319796954314721 Y2.6802030456852792
G1 X1.9619289340101522 Y5.180203045685278
G1 X0.1319796954314721 Y7.680203045685278
G1 X3.213197969543147 Y7.345177664974619
G1 X4.461928934010152 Y10.180203045685278
M5
G0 X4.461928934010152 Y10.181218274111675
G1 Z7.2 F50
M3
G1 X5.713197969543147 Y7.345177664974619 F50
G1 X8.791878172588833 Y7.680203045685278
G1 X6.961928934010152 Y5.180203045685278
G1 X8.791878172588833 Y2.6802030456852792
G1 X5.713197969543147 Y3.015228426395939
G1 X4.461928934010152 Y0.1802030456852792
G1 X3.213197969543147 Y3.015228426395939
G1 X0.1319796954314721 Y2.6802030456852792
G1 X1.9619289340101522 Y5.180203045685278
G1 X0.1319796954314721 Y7.680203045685278
G1 X3.213197969543147 Y7.345177664974619
G1 X4.461928934010152 Y10.180203045685278
M5
G0 X4.461928934010152 Y10.181218274111675
G1 Z7.4 F50
M3
G1 X5.713197969543147 Y7.345177664974619 F50
G1 X8.791878172588833 Y7.680203045685278
G1 X6.961928934010152 Y5.180203045685278
G1 X8.791878172588833 Y2.6802030456852792
G1 X5.713197969543147 Y3.015228426395939
G1 X4.461928934010152 Y0.1802030456852792
G1 X3.213197969543147 Y3.015228426395939
G1 X0.1319796954314721 Y2.6802030456852792
G1 X1.9619289340101522 Y5.180203045685278
G1 X0.1319796954314721 Y7.680203045685278
G1 X3.213197969543147 Y7.345177664974619
G1 X4.461928934010152 Y10.180203045685278
M5
G0 X4.461928934010152 Y10.181218274111675
G1 Z7.6 F50
M3
G1 X5.713197969543147 Y7.345177664974619 F50
G1 X8.791878172588833 Y7.680203045685278
G1 X6.961928934010152 Y5.180203045685278
G1 X8.791878172588833 Y2.6802030456852792
G1 X5.713197969543147 Y3.015228426395939
G1 X4.461928934010152 Y0.1802030456852792
G1 X3.213197969543147 Y3.015228426395939
G1 X0.1319796954314721 Y2.6802030456852792
G1 X1.9619289340101522 Y5.180203045685278
G1 X0.1319796954314721 Y7.680203045685278
G1 X3.213197969543147 Y7.345177664974619
G1 X4.461928934010152 Y10.180203045685278
M5
G0 X4.461928934010152 Y10.181218274111675
G1 Z7.8 F50
M3
G1 X5.713197969543147 Y7.345177664974619 F50
G1 X8.791878172588833 Y7.680203045685278
G1 X6.961928934010152 Y5.180203045685278
G1 X8.791878172588833 Y2.6802030456852792
G1 X5.713197969543147 Y3.015228426395939
G1 X4.461928934010152 Y0.1802030456852792
G1 X3.213197969543147 Y3.015228426395939
G1 X0.1319796954314721 Y2.6802030456852792
G1 X1.9619289340101522 Y5.180203045685278
G1 X0.1319796954314721 Y7.680203045685278
G1 X3.213197969543147 Y7.345177664974619
G1 X4.461928934010152 Y10.180203045685278
M5
G0 X4.461928934010152 Y10.181218274111675
G1 Z8 F50
M3
G1 X5.713197969543147 Y7.345177664974619 F50
G1 X8.791878172588833 Y7.680203045685278
G1 X6.961928934010152 Y5.180203045685278
G1 X8.791878172588833 Y2.6802030456852792
G1 X5.713197969543147 Y3.015228426395939
G1 X4.461928934010152 Y0.1802030456852792
G1 X3.213197969543147 Y3.015228426395939
G1 X0.1319796954314721 Y2.6802030456852792
G1 X1.9619289340101522 Y5.180203045685278
G1 X0.1319796954314721 Y7.680203045685278
G1 X3.213197969543147 Y7.345177664974619
G1 X4.461928934010152 Y10.180203045685278
M5
G0 X4.461928934010152 Y10.181218274111675
G1 Z8.2 F50
M3
G1 X5.713197969543147 Y7.345177664974619 F50
G1 X8.791878172588833 Y7.680203045685278
G1 X6.961928934010152 Y5.180203045685278
G1 X8.791878172588833 Y2.6802030456852792
G1 X5.713197969543147 Y3.015228426395939
G1 X4.461928934010152 Y0.1802030456852792
G1 X3.213197969543147 Y3.015228426395939
G1 X0.1319796954314721 Y2.6802030456852792
G1 X1.9619289340101522 Y5.180203045685278
G1 X0.1319796954314721 Y7.680203045685278
G1 X3.213197969543147 Y7.345177664974619
G1 X4.461928934010152 Y10.180203045685278
M5
G0 X4.461928934010152 Y10.181218274111675
G1 Z8.4 F50
M3
G1 X5.713197969543147 Y7.345177664974619 F50
G1 X8.791878172588833 Y7.680203045685278
G1 X6.961928934010152 Y5.180203045685278
G1 X8.791878172588833 Y2.6802030456852792
G1 X5.713197969543147 Y3.015228426395939
G1 X4.461928934010152 Y0.1802030456852792
G1 X3.213197969543147 Y3.015228426395939
G1 X0.1319796954314721 Y2.6802030456852792
G1 X1.9619289340101522 Y5.180203045685278
G1 X0.1319796954314721 Y7.680203045685278
G1 X3.213197969543147 Y7.345177664974619
G1 X4.461928934010152 Y10.180203045685278
M5
G0 X4.461928934010152 Y10.181218274111675
G1 Z8.6 F50
M3
G1 X5.713197969543147 Y7.345177664974619 F50
G1 X8.791878172588833 Y7.680203045685278
G1 X6.961928934010152 Y5.180203045685278
G1 X8.791878172588833 Y2.6802030456852792
G1 X5.713197969543147 Y3.015228426395939
G1 X4.461928934010152 Y0.1802030456852792
G1 X3.213197969543147 Y3.015228426395939
G1 X0.1319796954314721 Y2.6802030456852792
G1 X1.9619289340101522 Y5.180203045685278
G1 X0.1319796954314721 Y7.680203045685278
G1 X3.213197969543147 Y7.345177664974619
G1 X4.461928934010152 Y10.180203045685278
M5
G0 X4.461928934010152 Y10.181218274111675
G1 Z8.8 F50
M3
G1 X5.713197969543147 Y7.345177664974619 F50
G1 X8.791878172588833 Y7.680203045685278
G1 X6.961928934010152 Y5.180203045685278
G1 X8.791878172588833 Y2.6802030456852792
G1 X5.713197969543147 Y3.015228426395939
G1 X4.461928934010152 Y0.1802030456852792
G1 X3.213197969543147 Y3.015228426395939
G1 X0.1319796954314721 Y2.6802030456852792
G1 X1.9619289340101522 Y5.180203045685278
G1 X0.1319796954314721 Y7.680203045685278
G1 X3.213197969543147 Y7.345177664974619
G1 X4.461928934010152 Y10.180203045685278
M5
G0 X4.461928934010152 Y10.181218274111675
G1 Z9 F50
M3
G1 X5.713197969543147 Y7.345177664974619 F50
G1 X8.791878172588833 Y7.680203045685278
G1 X6.961928934010152 Y5.180203045685278
G1 X8.791878172588833 Y2.6802030456852792
G1 X5.713197969543147 Y3.015228426395939
G1 X4.461928934010152 Y0.1802030456852792
G1 X3.213197969543147 Y3.015228426395939
G1 X0.1319796954314721 Y2.6802030456852792
G1 X1.9619289340101522 Y5.180203045685278
G1 X0.1319796954314721 Y7.680203045685278
G1 X3.213197969543147 Y7.345177664974619
G1 X4.461928934010152 Y10.180203045685278
M5
G0 X4.461928934010152 Y10.181218274111675
G1 Z9.2 F50
M3
G1 X5.713197969543147 Y7.345177664974619 F50
G1 X8.791878172588833 Y7.680203045685278
G1 X6.961928934010152 Y5.180203045685278
G1 X8.791878172588833 Y2.6802030456852792
G1 X5.713197969543147 Y3.015228426395939
G1 X4.461928934010152 Y0.1802030456852792
G1 X3.213197969543147 Y3.015228426395939
G1 X0.1319796954314721 Y2.6802030456852792
G1 X1.9619289340101522 Y5.180203045685278
G1 X0.1319796954314721 Y7.680203045685278
G1 X3.213197969543147 Y7.345177664974619
G1 X4.461928934010152 Y10.180203045685278
M5
G0 X4.461928934010152 Y10.181218274111675
G1 Z9.4 F50
M3
G1 X5.713197969543147 Y7.345177664974619 F50
G1 X8.791878172588833 Y7.680203045685278
G1 X6.961928934010152 Y5.180203045685278
G1 X8.791878172588833 Y2.6802030456852792
G1 X5.713197969543147 Y3.015228426395939
G1 X4.461928934010152 Y0.1802030456852792
G1 X3.213197969543147 Y3.015228426395939
G1 X0.1319796954314721 Y2.6802030456852792
G1 X1.9619289340101522 Y5.180203045685278
G1 X0.1319796954314721 Y7.680203045685278
G1 X3.213197969543147 Y7.345177664974619
G1 X4.461928934010152 Y10.180203045685278
M5
G0 X4.461928934010152 Y10.181218274111675
G1 Z9.6 F50
M3
G1 X5.713197969543147 Y7.345177664974619 F50
G1 X8.791878172588833 Y7.680203045685278
G1 X6.961928934010152 Y5.180203045685278
G1 X8.791878172588833 Y2.6802030456852792
G1 X5.713197969543147 Y3.015228426395939
G1 X4.461928934010152 Y0.1802030456852792
G1 X3.213197969543147 Y3.015228426395939
G1 X0.1319796954314721 Y2.6802030456852792
G1 X1.9619289340101522 Y5.180203045685278
G1 X0.1319796954314721 Y7.680203045685278
G1 X3.213197969543147 Y7.345177664974619
G1 X4.461928934010152 Y10.180203045685278
M5
G0 X4.461928934010152 Y10.181218274111675
G1 Z9.8 F50
M3
G1 X5.713197969543147 Y7.345177664974619 F50
G1 X8.791878172588833 Y7.680203045685278
G1 X6.961928934010152 Y5.180203045685278
G1 X8.791878172588833 Y2.6802030456852792
G1 X5.713197969543147 Y3.015228426395939
G1 X4.461928934010152 Y0.1802030456852792
G1 X3.213197969543147 Y3.015228426395939
G1 X0.1319796954314721 Y2.6802030456852792
G1 X1.9619289340101522 Y5.180203045685278
G1 X0.1319796954314721 Y7.680203045685278
G1 X3.213197969543147 Y7.345177664974619
G1 X4.461928934010152 Y10.180203045685278
M5
G0 X4.461928934010152 Y10.181218274111675
G1 Z10 F50
M3
G1 X5.713197969543147 Y7.345177664974619 F50
G1 X8.791878172588833 Y7.680203045685278
G1 X6.961928934010152 Y5.180203045685278
G1 X8.791878172588833 Y2.6802030456852792
G1 X5.713197969543147 Y3.015228426395939
G1 X4.461928934010152 Y0.1802030456852792
G1 X3.213197969543147 Y3.015228426395939
G1 X0.1319796954314721 Y2.6802030456852792
G1 X1.9619289340101522 Y5.180203045685278
G1 X0.1319796954314721 Y7.680203045685278
G1 X3.213197969543147 Y7.345177664974619
G1 X4.461928934010152 Y10.180203045685278
M5
M5
M30
