(Generated by PartKam Version 0.05)

G21 G90 G40

(follow path 1)
G0 Z0
T0 M6
G17
M3
G0 X4.8365482233502535 Y10.282994923857869
G1 Z-0.2 F50
G1 X6.086294416243655 Y7.449238578680203 F50
G1 X9.167512690355329 Y7.784263959390863
G1 X7.337563451776649 Y5.284263959390863
G1 X9.167512690355329 Y2.784263959390863
G1 X6.086294416243655 Y3.1167512690355332
G1 X4.837563451776649 Y0.28426395939086296
G1 X3.586294416243655 Y3.1167512690355332
G1 X0.5076142131979695 Y2.784263959390863
G1 X2.3375634517766497 Y5.284263959390863
G1 X0.5076142131979695 Y7.784263959390863
G1 X3.586294416243655 Y7.449238578680203
G1 X4.837563451776649 Y10.284263959390863
G0 Z0
G0 X4.8365482233502535 Y10.282994923857869
G1 Z-0.4 F50
G1 X6.086294416243655 Y7.449238578680203 F50
G1 X9.167512690355329 Y7.784263959390863
G1 X7.337563451776649 Y5.284263959390863
G1 X9.167512690355329 Y2.784263959390863
G1 X6.086294416243655 Y3.1167512690355332
G1 X4.837563451776649 Y0.28426395939086296
G1 X3.586294416243655 Y3.1167512690355332
G1 X0.5076142131979695 Y2.784263959390863
G1 X2.3375634517766497 Y5.284263959390863
G1 X0.5076142131979695 Y7.784263959390863
G1 X3.586294416243655 Y7.449238578680203
G1 X4.837563451776649 Y10.284263959390863
G0 Z0
G0 X4.8365482233502535 Y10.282994923857869
G1 Z-0.6 F50
G1 X6.086294416243655 Y7.449238578680203 F50
G1 X9.167512690355329 Y7.784263959390863
G1 X7.337563451776649 Y5.284263959390863
G1 X9.167512690355329 Y2.784263959390863
G1 X6.086294416243655 Y3.1167512690355332
G1 X4.837563451776649 Y0.28426395939086296
G1 X3.586294416243655 Y3.1167512690355332
G1 X0.5076142131979695 Y2.784263959390863
G1 X2.3375634517766497 Y5.284263959390863
G1 X0.5076142131979695 Y7.784263959390863
G1 X3.586294416243655 Y7.449238578680203
G1 X4.837563451776649 Y10.284263959390863
G0 Z0
G0 X4.8365482233502535 Y10.282994923857869
G1 Z-0.8 F50
G1 X6.086294416243655 Y7.449238578680203 F50
G1 X9.167512690355329 Y7.784263959390863
G1 X7.337563451776649 Y5.284263959390863
G1 X9.167512690355329 Y2.784263959390863
G1 X6.086294416243655 Y3.1167512690355332
G1 X4.837563451776649 Y0.28426395939086296
G1 X3.586294416243655 Y3.1167512690355332
G1 X0.5076142131979695 Y2.784263959390863
G1 X2.3375634517766497 Y5.284263959390863
G1 X0.5076142131979695 Y7.784263959390863
G1 X3.586294416243655 Y7.449238578680203
G1 X4.837563451776649 Y10.284263959390863
G0 Z0
G0 X4.8365482233502535 Y10.282994923857869
G1 Z-1 F50
G1 X6.086294416243655 Y7.449238578680203 F50
G1 X9.167512690355329 Y7.784263959390863
G1 X7.337563451776649 Y5.284263959390863
G1 X9.167512690355329 Y2.784263959390863
G1 X6.086294416243655 Y3.1167512690355332
G1 X4.837563451776649 Y0.28426395939086296
G1 X3.586294416243655 Y3.1167512690355332
G1 X0.5076142131979695 Y2.784263959390863
G1 X2.3375634517766497 Y5.284263959390863
G1 X0.5076142131979695 Y7.784263959390863
G1 X3.586294416243655 Y7.449238578680203
G1 X4.837563451776649 Y10.284263959390863
G0 Z0
G0 X4.8365482233502535 Y10.282994923857869
G1 Z-1.2 F50
G1 X6.086294416243655 Y7.449238578680203 F50
G1 X9.167512690355329 Y7.784263959390863
G1 X7.337563451776649 Y5.284263959390863
G1 X9.167512690355329 Y2.784263959390863
G1 X6.086294416243655 Y3.1167512690355332
G1 X4.837563451776649 Y0.28426395939086296
G1 X3.586294416243655 Y3.1167512690355332
G1 X0.5076142131979695 Y2.784263959390863
G1 X2.3375634517766497 Y5.284263959390863
G1 X0.5076142131979695 Y7.784263959390863
G1 X3.586294416243655 Y7.449238578680203
G1 X4.837563451776649 Y10.284263959390863
G0 Z0
G0 X4.8365482233502535 Y10.282994923857869
G1 Z-1.4 F50
G1 X6.086294416243655 Y7.449238578680203 F50
G1 X9.167512690355329 Y7.784263959390863
G1 X7.337563451776649 Y5.284263959390863
G1 X9.167512690355329 Y2.784263959390863
G1 X6.086294416243655 Y3.1167512690355332
G1 X4.837563451776649 Y0.28426395939086296
G1 X3.586294416243655 Y3.1167512690355332
G1 X0.5076142131979695 Y2.784263959390863
G1 X2.3375634517766497 Y5.284263959390863
G1 X0.5076142131979695 Y7.784263959390863
G1 X3.586294416243655 Y7.449238578680203
G1 X4.837563451776649 Y10.284263959390863
G0 Z0
G0 X4.8365482233502535 Y10.282994923857869
G1 Z-1.6 F50
G1 X6.086294416243655 Y7.449238578680203 F50
G1 X9.167512690355329 Y7.784263959390863
G1 X7.337563451776649 Y5.284263959390863
G1 X9.167512690355329 Y2.784263959390863
G1 X6.086294416243655 Y3.1167512690355332
G1 X4.837563451776649 Y0.28426395939086296
G1 X3.586294416243655 Y3.1167512690355332
G1 X0.5076142131979695 Y2.784263959390863
G1 X2.3375634517766497 Y5.284263959390863
G1 X0.5076142131979695 Y7.784263959390863
G1 X3.586294416243655 Y7.449238578680203
G1 X4.837563451776649 Y10.284263959390863
G0 Z0
G0 X4.8365482233502535 Y10.282994923857869
G1 Z-1.8 F50
G1 X6.086294416243655 Y7.449238578680203 F50
G1 X9.167512690355329 Y7.784263959390863
G1 X7.337563451776649 Y5.284263959390863
G1 X9.167512690355329 Y2.784263959390863
G1 X6.086294416243655 Y3.1167512690355332
G1 X4.837563451776649 Y0.28426395939086296
G1 X3.586294416243655 Y3.1167512690355332
G1 X0.5076142131979695 Y2.784263959390863
G1 X2.3375634517766497 Y5.284263959390863
G1 X0.5076142131979695 Y7.784263959390863
G1 X3.586294416243655 Y7.449238578680203
G1 X4.837563451776649 Y10.284263959390863
G0 Z0
G0 X4.8365482233502535 Y10.282994923857869
G1 Z-2 F50
G1 X6.086294416243655 Y7.449238578680203 F50
G1 X9.167512690355329 Y7.784263959390863
G1 X7.337563451776649 Y5.284263959390863
G1 X9.167512690355329 Y2.784263959390863
G1 X6.086294416243655 Y3.1167512690355332
G1 X4.837563451776649 Y0.28426395939086296
G1 X3.586294416243655 Y3.1167512690355332
G1 X0.5076142131979695 Y2.784263959390863
G1 X2.3375634517766497 Y5.284263959390863
G1 X0.5076142131979695 Y7.784263959390863
G1 X3.586294416243655 Y7.449238578680203
G1 X4.837563451776649 Y10.284263959390863
G0 Z0
G0 X4.8365482233502535 Y10.282994923857869
G1 Z-2.2 F50
G1 X6.086294416243655 Y7.449238578680203 F50
G1 X9.167512690355329 Y7.784263959390863
G1 X7.337563451776649 Y5.284263959390863
G1 X9.167512690355329 Y2.784263959390863
G1 X6.086294416243655 Y3.1167512690355332
G1 X4.837563451776649 Y0.28426395939086296
G1 X3.586294416243655 Y3.1167512690355332
G1 X0.5076142131979695 Y2.784263959390863
G1 X2.3375634517766497 Y5.284263959390863
G1 X0.5076142131979695 Y7.784263959390863
G1 X3.586294416243655 Y7.449238578680203
G1 X4.837563451776649 Y10.284263959390863
G0 Z0
G0 X4.8365482233502535 Y10.282994923857869
G1 Z-2.4 F50
G1 X6.086294416243655 Y7.449238578680203 F50
G1 X9.167512690355329 Y7.784263959390863
G1 X7.337563451776649 Y5.284263959390863
G1 X9.167512690355329 Y2.784263959390863
G1 X6.086294416243655 Y3.1167512690355332
G1 X4.837563451776649 Y0.28426395939086296
G1 X3.586294416243655 Y3.1167512690355332
G1 X0.5076142131979695 Y2.784263959390863
G1 X2.3375634517766497 Y5.284263959390863
G1 X0.5076142131979695 Y7.784263959390863
G1 X3.586294416243655 Y7.449238578680203
G1 X4.837563451776649 Y10.284263959390863
G0 Z0
G0 X4.8365482233502535 Y10.282994923857869
G1 Z-2.6 F50
G1 X6.086294416243655 Y7.449238578680203 F50
G1 X9.167512690355329 Y7.784263959390863
G1 X7.337563451776649 Y5.284263959390863
G1 X9.167512690355329 Y2.784263959390863
G1 X6.086294416243655 Y3.1167512690355332
G1 X4.837563451776649 Y0.28426395939086296
G1 X3.586294416243655 Y3.1167512690355332
G1 X0.5076142131979695 Y2.784263959390863
G1 X2.3375634517766497 Y5.284263959390863
G1 X0.5076142131979695 Y7.784263959390863
G1 X3.586294416243655 Y7.449238578680203
G1 X4.837563451776649 Y10.284263959390863
G0 Z0
G0 X4.8365482233502535 Y10.282994923857869
G1 Z-2.8 F50
G1 X6.086294416243655 Y7.449238578680203 F50
G1 X9.167512690355329 Y7.784263959390863
G1 X7.337563451776649 Y5.284263959390863
G1 X9.167512690355329 Y2.784263959390863
G1 X6.086294416243655 Y3.1167512690355332
G1 X4.837563451776649 Y0.28426395939086296
G1 X3.586294416243655 Y3.1167512690355332
G1 X0.5076142131979695 Y2.784263959390863
G1 X2.3375634517766497 Y5.284263959390863
G1 X0.5076142131979695 Y7.784263959390863
G1 X3.586294416243655 Y7.449238578680203
G1 X4.837563451776649 Y10.284263959390863
G0 Z0
G0 X4.8365482233502535 Y10.282994923857869
G1 Z-3 F50
G1 X6.086294416243655 Y7.449238578680203 F50
G1 X9.167512690355329 Y7.784263959390863
G1 X7.337563451776649 Y5.284263959390863
G1 X9.167512690355329 Y2.784263959390863
G1 X6.086294416243655 Y3.1167512690355332
G1 X4.837563451776649 Y0.28426395939086296
G1 X3.586294416243655 Y3.1167512690355332
G1 X0.5076142131979695 Y2.784263959390863
G1 X2.3375634517766497 Y5.284263959390863
G1 X0.5076142131979695 Y7.784263959390863
G1 X3.586294416243655 Y7.449238578680203
G1 X4.837563451776649 Y10.284263959390863
G0 Z0
G0 X4.8365482233502535 Y10.282994923857869
G1 Z-3.2 F50
G1 X6.086294416243655 Y7.449238578680203 F50
G1 X9.167512690355329 Y7.784263959390863
G1 X7.337563451776649 Y5.284263959390863
G1 X9.167512690355329 Y2.784263959390863
G1 X6.086294416243655 Y3.1167512690355332
G1 X4.837563451776649 Y0.28426395939086296
G1 X3.586294416243655 Y3.1167512690355332
G1 X0.5076142131979695 Y2.784263959390863
G1 X2.3375634517766497 Y5.284263959390863
G1 X0.5076142131979695 Y7.784263959390863
G1 X3.586294416243655 Y7.449238578680203
G1 X4.837563451776649 Y10.284263959390863
G0 Z0
G0 X4.8365482233502535 Y10.282994923857869
G1 Z-3.4 F50
G1 X6.086294416243655 Y7.449238578680203 F50
G1 X9.167512690355329 Y7.784263959390863
G1 X7.337563451776649 Y5.284263959390863
G1 X9.167512690355329 Y2.784263959390863
G1 X6.086294416243655 Y3.1167512690355332
G1 X4.837563451776649 Y0.28426395939086296
G1 X3.586294416243655 Y3.1167512690355332
G1 X0.5076142131979695 Y2.784263959390863
G1 X2.3375634517766497 Y5.284263959390863
G1 X0.5076142131979695 Y7.784263959390863
G1 X3.586294416243655 Y7.449238578680203
G1 X4.837563451776649 Y10.284263959390863
G0 Z0
G0 X4.8365482233502535 Y10.282994923857869
G1 Z-3.6 F50
G1 X6.086294416243655 Y7.449238578680203 F50
G1 X9.167512690355329 Y7.784263959390863
G1 X7.337563451776649 Y5.284263959390863
G1 X9.167512690355329 Y2.784263959390863
G1 X6.086294416243655 Y3.1167512690355332
G1 X4.837563451776649 Y0.28426395939086296
G1 X3.586294416243655 Y3.1167512690355332
G1 X0.5076142131979695 Y2.784263959390863
G1 X2.3375634517766497 Y5.284263959390863
G1 X0.5076142131979695 Y7.784263959390863
G1 X3.586294416243655 Y7.449238578680203
G1 X4.837563451776649 Y10.284263959390863
G0 Z0
G0 X4.8365482233502535 Y10.282994923857869
G1 Z-3.8 F50
G1 X6.086294416243655 Y7.449238578680203 F50
G1 X9.167512690355329 Y7.784263959390863
G1 X7.337563451776649 Y5.284263959390863
G1 X9.167512690355329 Y2.784263959390863
G1 X6.086294416243655 Y3.1167512690355332
G1 X4.837563451776649 Y0.28426395939086296
G1 X3.586294416243655 Y3.1167512690355332
G1 X0.5076142131979695 Y2.784263959390863
G1 X2.3375634517766497 Y5.284263959390863
G1 X0.5076142131979695 Y7.784263959390863
G1 X3.586294416243655 Y7.449238578680203
G1 X4.837563451776649 Y10.284263959390863
G0 Z0
G0 X4.8365482233502535 Y10.282994923857869
G1 Z-4 F50
G1 X6.086294416243655 Y7.449238578680203 F50
G1 X9.167512690355329 Y7.784263959390863
G1 X7.337563451776649 Y5.284263959390863
G1 X9.167512690355329 Y2.784263959390863
G1 X6.086294416243655 Y3.1167512690355332
G1 X4.837563451776649 Y0.28426395939086296
G1 X3.586294416243655 Y3.1167512690355332
G1 X0.5076142131979695 Y2.784263959390863
G1 X2.3375634517766497 Y5.284263959390863
G1 X0.5076142131979695 Y7.784263959390863
G1 X3.586294416243655 Y7.449238578680203
G1 X4.837563451776649 Y10.284263959390863
G0 Z0
G0 X4.8365482233502535 Y10.282994923857869
G1 Z-4.2 F50
G1 X6.086294416243655 Y7.449238578680203 F50
G1 X9.167512690355329 Y7.784263959390863
G1 X7.337563451776649 Y5.284263959390863
G1 X9.167512690355329 Y2.784263959390863
G1 X6.086294416243655 Y3.1167512690355332
G1 X4.837563451776649 Y0.28426395939086296
G1 X3.586294416243655 Y3.1167512690355332
G1 X0.5076142131979695 Y2.784263959390863
G1 X2.3375634517766497 Y5.284263959390863
G1 X0.5076142131979695 Y7.784263959390863
G1 X3.586294416243655 Y7.449238578680203
G1 X4.837563451776649 Y10.284263959390863
G0 Z0
G0 X4.8365482233502535 Y10.282994923857869
G1 Z-4.4 F50
G1 X6.086294416243655 Y7.449238578680203 F50
G1 X9.167512690355329 Y7.784263959390863
G1 X7.337563451776649 Y5.284263959390863
G1 X9.167512690355329 Y2.784263959390863
G1 X6.086294416243655 Y3.1167512690355332
G1 X4.837563451776649 Y0.28426395939086296
G1 X3.586294416243655 Y3.1167512690355332
G1 X0.5076142131979695 Y2.784263959390863
G1 X2.3375634517766497 Y5.284263959390863
G1 X0.5076142131979695 Y7.784263959390863
G1 X3.586294416243655 Y7.449238578680203
G1 X4.837563451776649 Y10.284263959390863
G0 Z0
G0 X4.8365482233502535 Y10.282994923857869
G1 Z-4.6 F50
G1 X6.086294416243655 Y7.449238578680203 F50
G1 X9.167512690355329 Y7.784263959390863
G1 X7.337563451776649 Y5.284263959390863
G1 X9.167512690355329 Y2.784263959390863
G1 X6.086294416243655 Y3.1167512690355332
G1 X4.837563451776649 Y0.28426395939086296
G1 X3.586294416243655 Y3.1167512690355332
G1 X0.5076142131979695 Y2.784263959390863
G1 X2.3375634517766497 Y5.284263959390863
G1 X0.5076142131979695 Y7.784263959390863
G1 X3.586294416243655 Y7.449238578680203
G1 X4.837563451776649 Y10.284263959390863
G0 Z0
G0 X4.8365482233502535 Y10.282994923857869
G1 Z-4.8 F50
G1 X6.086294416243655 Y7.449238578680203 F50
G1 X9.167512690355329 Y7.784263959390863
G1 X7.337563451776649 Y5.284263959390863
G1 X9.167512690355329 Y2.784263959390863
G1 X6.086294416243655 Y3.1167512690355332
G1 X4.837563451776649 Y0.28426395939086296
G1 X3.586294416243655 Y3.1167512690355332
G1 X0.5076142131979695 Y2.784263959390863
G1 X2.3375634517766497 Y5.284263959390863
G1 X0.5076142131979695 Y7.784263959390863
G1 X3.586294416243655 Y7.449238578680203
G1 X4.837563451776649 Y10.284263959390863
G0 Z0
G0 X4.8365482233502535 Y10.282994923857869
G1 Z-5 F50
G1 X6.086294416243655 Y7.449238578680203 F50
G1 X9.167512690355329 Y7.784263959390863
G1 X7.337563451776649 Y5.284263959390863
G1 X9.167512690355329 Y2.784263959390863
G1 X6.086294416243655 Y3.1167512690355332
G1 X4.837563451776649 Y0.28426395939086296
G1 X3.586294416243655 Y3.1167512690355332
G1 X0.5076142131979695 Y2.784263959390863
G1 X2.3375634517766497 Y5.284263959390863
G1 X0.5076142131979695 Y7.784263959390863
G1 X3.586294416243655 Y7.449238578680203
G1 X4.837563451776649 Y10.284263959390863
G0 Z0
G0 X4.8365482233502535 Y10.282994923857869
G1 Z-5.2 F50
G1 X6.086294416243655 Y7.449238578680203 F50
G1 X9.167512690355329 Y7.784263959390863
G1 X7.337563451776649 Y5.284263959390863
G1 X9.167512690355329 Y2.784263959390863
G1 X6.086294416243655 Y3.1167512690355332
G1 X4.837563451776649 Y0.28426395939086296
G1 X3.586294416243655 Y3.1167512690355332
G1 X0.5076142131979695 Y2.784263959390863
G1 X2.3375634517766497 Y5.284263959390863
G1 X0.5076142131979695 Y7.784263959390863
G1 X3.586294416243655 Y7.449238578680203
G1 X4.837563451776649 Y10.284263959390863
G0 Z0
G0 X4.8365482233502535 Y10.282994923857869
G1 Z-5.4 F50
G1 X6.086294416243655 Y7.449238578680203 F50
G1 X9.167512690355329 Y7.784263959390863
G1 X7.337563451776649 Y5.284263959390863
G1 X9.167512690355329 Y2.784263959390863
G1 X6.086294416243655 Y3.1167512690355332
G1 X4.837563451776649 Y0.28426395939086296
G1 X3.586294416243655 Y3.1167512690355332
G1 X0.5076142131979695 Y2.784263959390863
G1 X2.3375634517766497 Y5.284263959390863
G1 X0.5076142131979695 Y7.784263959390863
G1 X3.586294416243655 Y7.449238578680203
G1 X4.837563451776649 Y10.284263959390863
G0 Z0
G0 X4.8365482233502535 Y10.282994923857869
G1 Z-5.6 F50
G1 X6.086294416243655 Y7.449238578680203 F50
G1 X9.167512690355329 Y7.784263959390863
G1 X7.337563451776649 Y5.284263959390863
G1 X9.167512690355329 Y2.784263959390863
G1 X6.086294416243655 Y3.1167512690355332
G1 X4.837563451776649 Y0.28426395939086296
G1 X3.586294416243655 Y3.1167512690355332
G1 X0.5076142131979695 Y2.784263959390863
G1 X2.3375634517766497 Y5.284263959390863
G1 X0.5076142131979695 Y7.784263959390863
G1 X3.586294416243655 Y7.449238578680203
G1 X4.837563451776649 Y10.284263959390863
G0 Z0
G0 X4.8365482233502535 Y10.282994923857869
G1 Z-5.8 F50
G1 X6.086294416243655 Y7.449238578680203 F50
G1 X9.167512690355329 Y7.784263959390863
G1 X7.337563451776649 Y5.284263959390863
G1 X9.167512690355329 Y2.784263959390863
G1 X6.086294416243655 Y3.1167512690355332
G1 X4.837563451776649 Y0.28426395939086296
G1 X3.586294416243655 Y3.1167512690355332
G1 X0.5076142131979695 Y2.784263959390863
G1 X2.3375634517766497 Y5.284263959390863
G1 X0.5076142131979695 Y7.784263959390863
G1 X3.586294416243655 Y7.449238578680203
G1 X4.837563451776649 Y10.284263959390863
G0 Z0
G0 X4.8365482233502535 Y10.282994923857869
G1 Z-6 F50
G1 X6.086294416243655 Y7.449238578680203 F50
G1 X9.167512690355329 Y7.784263959390863
G1 X7.337563451776649 Y5.284263959390863
G1 X9.167512690355329 Y2.784263959390863
G1 X6.086294416243655 Y3.1167512690355332
G1 X4.837563451776649 Y0.28426395939086296
G1 X3.586294416243655 Y3.1167512690355332
G1 X0.5076142131979695 Y2.784263959390863
G1 X2.3375634517766497 Y5.284263959390863
G1 X0.5076142131979695 Y7.784263959390863
G1 X3.586294416243655 Y7.449238578680203
G1 X4.837563451776649 Y10.284263959390863
G0 Z0
G0 X4.8365482233502535 Y10.282994923857869
G1 Z-6.2 F50
G1 X6.086294416243655 Y7.449238578680203 F50
G1 X9.167512690355329 Y7.784263959390863
G1 X7.337563451776649 Y5.284263959390863
G1 X9.167512690355329 Y2.784263959390863
G1 X6.086294416243655 Y3.1167512690355332
G1 X4.837563451776649 Y0.28426395939086296
G1 X3.586294416243655 Y3.1167512690355332
G1 X0.5076142131979695 Y2.784263959390863
G1 X2.3375634517766497 Y5.284263959390863
G1 X0.5076142131979695 Y7.784263959390863
G1 X3.586294416243655 Y7.449238578680203
G1 X4.837563451776649 Y10.284263959390863
G0 Z0
G0 X4.8365482233502535 Y10.282994923857869
G1 Z-6.4 F50
G1 X6.086294416243655 Y7.449238578680203 F50
G1 X9.167512690355329 Y7.784263959390863
G1 X7.337563451776649 Y5.284263959390863
G1 X9.167512690355329 Y2.784263959390863
G1 X6.086294416243655 Y3.1167512690355332
G1 X4.837563451776649 Y0.28426395939086296
G1 X3.586294416243655 Y3.1167512690355332
G1 X0.5076142131979695 Y2.784263959390863
G1 X2.3375634517766497 Y5.284263959390863
G1 X0.5076142131979695 Y7.784263959390863
G1 X3.586294416243655 Y7.449238578680203
G1 X4.837563451776649 Y10.284263959390863
G0 Z0
G0 X4.8365482233502535 Y10.282994923857869
G1 Z-6.6 F50
G1 X6.086294416243655 Y7.449238578680203 F50
G1 X9.167512690355329 Y7.784263959390863
G1 X7.337563451776649 Y5.284263959390863
G1 X9.167512690355329 Y2.784263959390863
G1 X6.086294416243655 Y3.1167512690355332
G1 X4.837563451776649 Y0.28426395939086296
G1 X3.586294416243655 Y3.1167512690355332
G1 X0.5076142131979695 Y2.784263959390863
G1 X2.3375634517766497 Y5.284263959390863
G1 X0.5076142131979695 Y7.784263959390863
G1 X3.586294416243655 Y7.449238578680203
G1 X4.837563451776649 Y10.284263959390863
G0 Z0
G0 X4.8365482233502535 Y10.282994923857869
G1 Z-6.8 F50
G1 X6.086294416243655 Y7.449238578680203 F50
G1 X9.167512690355329 Y7.784263959390863
G1 X7.337563451776649 Y5.284263959390863
G1 X9.167512690355329 Y2.784263959390863
G1 X6.086294416243655 Y3.1167512690355332
G1 X4.837563451776649 Y0.28426395939086296
G1 X3.586294416243655 Y3.1167512690355332
G1 X0.5076142131979695 Y2.784263959390863
G1 X2.3375634517766497 Y5.284263959390863
G1 X0.5076142131979695 Y7.784263959390863
G1 X3.586294416243655 Y7.449238578680203
G1 X4.837563451776649 Y10.284263959390863
G0 Z0
G0 X4.8365482233502535 Y10.282994923857869
G1 Z-7 F50
G1 X6.086294416243655 Y7.449238578680203 F50
G1 X9.167512690355329 Y7.784263959390863
G1 X7.337563451776649 Y5.284263959390863
G1 X9.167512690355329 Y2.784263959390863
G1 X6.086294416243655 Y3.1167512690355332
G1 X4.837563451776649 Y0.28426395939086296
G1 X3.586294416243655 Y3.1167512690355332
G1 X0.5076142131979695 Y2.784263959390863
G1 X2.3375634517766497 Y5.284263959390863
G1 X0.5076142131979695 Y7.784263959390863
G1 X3.586294416243655 Y7.449238578680203
G1 X4.837563451776649 Y10.284263959390863
G0 Z0
G0 X4.8365482233502535 Y10.282994923857869
G1 Z-7.2 F50
G1 X6.086294416243655 Y7.449238578680203 F50
G1 X9.167512690355329 Y7.784263959390863
G1 X7.337563451776649 Y5.284263959390863
G1 X9.167512690355329 Y2.784263959390863
G1 X6.086294416243655 Y3.1167512690355332
G1 X4.837563451776649 Y0.28426395939086296
G1 X3.586294416243655 Y3.1167512690355332
G1 X0.5076142131979695 Y2.784263959390863
G1 X2.3375634517766497 Y5.284263959390863
G1 X0.5076142131979695 Y7.784263959390863
G1 X3.586294416243655 Y7.449238578680203
G1 X4.837563451776649 Y10.284263959390863
G0 Z0
G0 X4.8365482233502535 Y10.282994923857869
G1 Z-7.4 F50
G1 X6.086294416243655 Y7.449238578680203 F50
G1 X9.167512690355329 Y7.784263959390863
G1 X7.337563451776649 Y5.284263959390863
G1 X9.167512690355329 Y2.784263959390863
G1 X6.086294416243655 Y3.1167512690355332
G1 X4.837563451776649 Y0.28426395939086296
G1 X3.586294416243655 Y3.1167512690355332
G1 X0.5076142131979695 Y2.784263959390863
G1 X2.3375634517766497 Y5.284263959390863
G1 X0.5076142131979695 Y7.784263959390863
G1 X3.586294416243655 Y7.449238578680203
G1 X4.837563451776649 Y10.284263959390863
G0 Z0
G0 X4.8365482233502535 Y10.282994923857869
G1 Z-7.6 F50
G1 X6.086294416243655 Y7.449238578680203 F50
G1 X9.167512690355329 Y7.784263959390863
G1 X7.337563451776649 Y5.284263959390863
G1 X9.167512690355329 Y2.784263959390863
G1 X6.086294416243655 Y3.1167512690355332
G1 X4.837563451776649 Y0.28426395939086296
G1 X3.586294416243655 Y3.1167512690355332
G1 X0.5076142131979695 Y2.784263959390863
G1 X2.3375634517766497 Y5.284263959390863
G1 X0.5076142131979695 Y7.784263959390863
G1 X3.586294416243655 Y7.449238578680203
G1 X4.837563451776649 Y10.284263959390863
G0 Z0
G0 X4.8365482233502535 Y10.282994923857869
G1 Z-7.8 F50
G1 X6.086294416243655 Y7.449238578680203 F50
G1 X9.167512690355329 Y7.784263959390863
G1 X7.337563451776649 Y5.284263959390863
G1 X9.167512690355329 Y2.784263959390863
G1 X6.086294416243655 Y3.1167512690355332
G1 X4.837563451776649 Y0.28426395939086296
G1 X3.586294416243655 Y3.1167512690355332
G1 X0.5076142131979695 Y2.784263959390863
G1 X2.3375634517766497 Y5.284263959390863
G1 X0.5076142131979695 Y7.784263959390863
G1 X3.586294416243655 Y7.449238578680203
G1 X4.837563451776649 Y10.284263959390863
G0 Z0
G0 X4.8365482233502535 Y10.282994923857869
G1 Z-8 F50
G1 X6.086294416243655 Y7.449238578680203 F50
G1 X9.167512690355329 Y7.784263959390863
G1 X7.337563451776649 Y5.284263959390863
G1 X9.167512690355329 Y2.784263959390863
G1 X6.086294416243655 Y3.1167512690355332
G1 X4.837563451776649 Y0.28426395939086296
G1 X3.586294416243655 Y3.1167512690355332
G1 X0.5076142131979695 Y2.784263959390863
G1 X2.3375634517766497 Y5.284263959390863
G1 X0.5076142131979695 Y7.784263959390863
G1 X3.586294416243655 Y7.449238578680203
G1 X4.837563451776649 Y10.284263959390863
G0 Z0
G0 X4.8365482233502535 Y10.282994923857869
G1 Z-8.2 F50
G1 X6.086294416243655 Y7.449238578680203 F50
G1 X9.167512690355329 Y7.784263959390863
G1 X7.337563451776649 Y5.284263959390863
G1 X9.167512690355329 Y2.784263959390863
G1 X6.086294416243655 Y3.1167512690355332
G1 X4.837563451776649 Y0.28426395939086296
G1 X3.586294416243655 Y3.1167512690355332
G1 X0.5076142131979695 Y2.784263959390863
G1 X2.3375634517766497 Y5.284263959390863
G1 X0.5076142131979695 Y7.784263959390863
G1 X3.586294416243655 Y7.449238578680203
G1 X4.837563451776649 Y10.284263959390863
G0 Z0
G0 X4.8365482233502535 Y10.282994923857869
G1 Z-8.4 F50
G1 X6.086294416243655 Y7.449238578680203 F50
G1 X9.167512690355329 Y7.784263959390863
G1 X7.337563451776649 Y5.284263959390863
G1 X9.167512690355329 Y2.784263959390863
G1 X6.086294416243655 Y3.1167512690355332
G1 X4.837563451776649 Y0.28426395939086296
G1 X3.586294416243655 Y3.1167512690355332
G1 X0.5076142131979695 Y2.784263959390863
G1 X2.3375634517766497 Y5.284263959390863
G1 X0.5076142131979695 Y7.784263959390863
G1 X3.586294416243655 Y7.449238578680203
G1 X4.837563451776649 Y10.284263959390863
G0 Z0
G0 X4.8365482233502535 Y10.282994923857869
G1 Z-8.6 F50
G1 X6.086294416243655 Y7.449238578680203 F50
G1 X9.167512690355329 Y7.784263959390863
G1 X7.337563451776649 Y5.284263959390863
G1 X9.167512690355329 Y2.784263959390863
G1 X6.086294416243655 Y3.1167512690355332
G1 X4.837563451776649 Y0.28426395939086296
G1 X3.586294416243655 Y3.1167512690355332
G1 X0.5076142131979695 Y2.784263959390863
G1 X2.3375634517766497 Y5.284263959390863
G1 X0.5076142131979695 Y7.784263959390863
G1 X3.586294416243655 Y7.449238578680203
G1 X4.837563451776649 Y10.284263959390863
G0 Z0
G0 X4.8365482233502535 Y10.282994923857869
G1 Z-8.8 F50
G1 X6.086294416243655 Y7.449238578680203 F50
G1 X9.167512690355329 Y7.784263959390863
G1 X7.337563451776649 Y5.284263959390863
G1 X9.167512690355329 Y2.784263959390863
G1 X6.086294416243655 Y3.1167512690355332
G1 X4.837563451776649 Y0.28426395939086296
G1 X3.586294416243655 Y3.1167512690355332
G1 X0.5076142131979695 Y2.784263959390863
G1 X2.3375634517766497 Y5.284263959390863
G1 X0.5076142131979695 Y7.784263959390863
G1 X3.586294416243655 Y7.449238578680203
G1 X4.837563451776649 Y10.284263959390863
G0 Z0
G0 X4.8365482233502535 Y10.282994923857869
G1 Z-9 F50
G1 X6.086294416243655 Y7.449238578680203 F50
G1 X9.167512690355329 Y7.784263959390863
G1 X7.337563451776649 Y5.284263959390863
G1 X9.167512690355329 Y2.784263959390863
G1 X6.086294416243655 Y3.1167512690355332
G1 X4.837563451776649 Y0.28426395939086296
G1 X3.586294416243655 Y3.1167512690355332
G1 X0.5076142131979695 Y2.784263959390863
G1 X2.3375634517766497 Y5.284263959390863
G1 X0.5076142131979695 Y7.784263959390863
G1 X3.586294416243655 Y7.449238578680203
G1 X4.837563451776649 Y10.284263959390863
G0 Z0
G0 X4.8365482233502535 Y10.282994923857869
G1 Z-9.2 F50
G1 X6.086294416243655 Y7.449238578680203 F50
G1 X9.167512690355329 Y7.784263959390863
G1 X7.337563451776649 Y5.284263959390863
G1 X9.167512690355329 Y2.784263959390863
G1 X6.086294416243655 Y3.1167512690355332
G1 X4.837563451776649 Y0.28426395939086296
G1 X3.586294416243655 Y3.1167512690355332
G1 X0.5076142131979695 Y2.784263959390863
G1 X2.3375634517766497 Y5.284263959390863
G1 X0.5076142131979695 Y7.784263959390863
G1 X3.586294416243655 Y7.449238578680203
G1 X4.837563451776649 Y10.284263959390863
G0 Z0
G0 X4.8365482233502535 Y10.282994923857869
G1 Z-9.4 F50
G1 X6.086294416243655 Y7.449238578680203 F50
G1 X9.167512690355329 Y7.784263959390863
G1 X7.337563451776649 Y5.284263959390863
G1 X9.167512690355329 Y2.784263959390863
G1 X6.086294416243655 Y3.1167512690355332
G1 X4.837563451776649 Y0.28426395939086296
G1 X3.586294416243655 Y3.1167512690355332
G1 X0.5076142131979695 Y2.784263959390863
G1 X2.3375634517766497 Y5.284263959390863
G1 X0.5076142131979695 Y7.784263959390863
G1 X3.586294416243655 Y7.449238578680203
G1 X4.837563451776649 Y10.284263959390863
G0 Z0
G0 X4.8365482233502535 Y10.282994923857869
G1 Z-9.6 F50
G1 X6.086294416243655 Y7.449238578680203 F50
G1 X9.167512690355329 Y7.784263959390863
G1 X7.337563451776649 Y5.284263959390863
G1 X9.167512690355329 Y2.784263959390863
G1 X6.086294416243655 Y3.1167512690355332
G1 X4.837563451776649 Y0.28426395939086296
G1 X3.586294416243655 Y3.1167512690355332
G1 X0.5076142131979695 Y2.784263959390863
G1 X2.3375634517766497 Y5.284263959390863
G1 X0.5076142131979695 Y7.784263959390863
G1 X3.586294416243655 Y7.449238578680203
G1 X4.837563451776649 Y10.284263959390863
G0 Z0
G0 X4.8365482233502535 Y10.282994923857869
G1 Z-9.8 F50
G1 X6.086294416243655 Y7.449238578680203 F50
G1 X9.167512690355329 Y7.784263959390863
G1 X7.337563451776649 Y5.284263959390863
G1 X9.167512690355329 Y2.784263959390863
G1 X6.086294416243655 Y3.1167512690355332
G1 X4.837563451776649 Y0.28426395939086296
G1 X3.586294416243655 Y3.1167512690355332
G1 X0.5076142131979695 Y2.784263959390863
G1 X2.3375634517766497 Y5.284263959390863
G1 X0.5076142131979695 Y7.784263959390863
G1 X3.586294416243655 Y7.449238578680203
G1 X4.837563451776649 Y10.284263959390863
G0 Z0
G0 X4.8365482233502535 Y10.282994923857869
G1 Z-10 F50
G1 X6.086294416243655 Y7.449238578680203 F50
G1 X9.167512690355329 Y7.784263959390863
G1 X7.337563451776649 Y5.284263959390863
G1 X9.167512690355329 Y2.784263959390863
G1 X6.086294416243655 Y3.1167512690355332
G1 X4.837563451776649 Y0.28426395939086296
G1 X3.586294416243655 Y3.1167512690355332
G1 X0.5076142131979695 Y2.784263959390863
G1 X2.3375634517766497 Y5.284263959390863
G1 X0.5076142131979695 Y7.784263959390863
G1 X3.586294416243655 Y7.449238578680203
G1 X4.837563451776649 Y10.284263959390863
G0 Z0
M5
M30
