(Generated by PartKam Version 0.05)

G21 G90 G40

(follow path 1)
G0 Z0.5
T0 M6
G17
G0 X4.741116751269035 Y20.51243654822335
G1 Z0.5 F50
M3
G1 X5.99238578680203 Y14.842639593908629 F50
G1 X9.071065989847716 Y15.51269035532995
G1 X7.241116751269035 Y10.51269035532995
G1 X9.071065989847716 Y5.512690355329949
G1 X5.99238578680203 Y6.182741116751269
G1 X4.741116751269035 Y0.5126903553299492
G1 X3.4923857868020303 Y6.182741116751269
G1 X0.4111675126903553 Y5.512690355329949
G1 X2.2411167512690353 Y10.51269035532995
G1 X0.4111675126903553 Y15.51269035532995
G1 X3.4923857868020303 Y14.842639593908629
G1 X4.741116751269035 Y20.512690355329948
M5
G0 X4.741116751269035 Y20.51243654822335
G1 Z1 F50
G1 X5.99238578680203 Y14.842639593908629 F50
G1 X9.071065989847716 Y15.51269035532995
G1 X7.241116751269035 Y10.51269035532995
G1 X9.071065989847716 Y5.512690355329949
G1 X5.99238578680203 Y6.182741116751269
G1 X4.741116751269035 Y0.5126903553299492
G1 X3.4923857868020303 Y6.182741116751269
G1 X0.4111675126903553 Y5.512690355329949
G1 X2.2411167512690353 Y10.51269035532995
G1 X0.4111675126903553 Y15.51269035532995
G1 X3.4923857868020303 Y14.842639593908629
G1 X4.741116751269035 Y20.512690355329948
M5
G0 X4.741116751269035 Y20.51243654822335
G1 Z1.5 F50
G1 X5.99238578680203 Y14.842639593908629 F50
G1 X9.071065989847716 Y15.51269035532995
G1 X7.241116751269035 Y10.51269035532995
G1 X9.071065989847716 Y5.512690355329949
G1 X5.99238578680203 Y6.182741116751269
G1 X4.741116751269035 Y0.5126903553299492
G1 X3.4923857868020303 Y6.182741116751269
G1 X0.4111675126903553 Y5.512690355329949
G1 X2.2411167512690353 Y10.51269035532995
G1 X0.4111675126903553 Y15.51269035532995
G1 X3.4923857868020303 Y14.842639593908629
G1 X4.741116751269035 Y20.512690355329948
M5
G0 X4.741116751269035 Y20.51243654822335
G1 Z2 F50
G1 X5.99238578680203 Y14.842639593908629 F50
G1 X9.071065989847716 Y15.51269035532995
G1 X7.241116751269035 Y10.51269035532995
G1 X9.071065989847716 Y5.512690355329949
G1 X5.99238578680203 Y6.182741116751269
G1 X4.741116751269035 Y0.5126903553299492
G1 X3.4923857868020303 Y6.182741116751269
G1 X0.4111675126903553 Y5.512690355329949
G1 X2.2411167512690353 Y10.51269035532995
G1 X0.4111675126903553 Y15.51269035532995
G1 X3.4923857868020303 Y14.842639593908629
G1 X4.741116751269035 Y20.512690355329948
M5
G0 X4.741116751269035 Y20.51243654822335
G1 Z2.5 F50
G1 X5.99238578680203 Y14.842639593908629 F50
G1 X9.071065989847716 Y15.51269035532995
G1 X7.241116751269035 Y10.51269035532995
G1 X9.071065989847716 Y5.512690355329949
G1 X5.99238578680203 Y6.182741116751269
G1 X4.741116751269035 Y0.5126903553299492
G1 X3.4923857868020303 Y6.182741116751269
G1 X0.4111675126903553 Y5.512690355329949
G1 X2.2411167512690353 Y10.51269035532995
G1 X0.4111675126903553 Y15.51269035532995
G1 X3.4923857868020303 Y14.842639593908629
G1 X4.741116751269035 Y20.512690355329948
M5
G0 X4.741116751269035 Y20.51243654822335
G1 Z3 F50
G1 X5.99238578680203 Y14.842639593908629 F50
G1 X9.071065989847716 Y15.51269035532995
G1 X7.241116751269035 Y10.51269035532995
G1 X9.071065989847716 Y5.512690355329949
G1 X5.99238578680203 Y6.182741116751269
G1 X4.741116751269035 Y0.5126903553299492
G1 X3.4923857868020303 Y6.182741116751269
G1 X0.4111675126903553 Y5.512690355329949
G1 X2.2411167512690353 Y10.51269035532995
G1 X0.4111675126903553 Y15.51269035532995
G1 X3.4923857868020303 Y14.842639593908629
G1 X4.741116751269035 Y20.512690355329948
M5
G0 X4.741116751269035 Y20.51243654822335
G1 Z3.5 F50
G1 X5.99238578680203 Y14.842639593908629 F50
G1 X9.071065989847716 Y15.51269035532995
G1 X7.241116751269035 Y10.51269035532995
G1 X9.071065989847716 Y5.512690355329949
G1 X5.99238578680203 Y6.182741116751269
G1 X4.741116751269035 Y0.5126903553299492
G1 X3.4923857868020303 Y6.182741116751269
G1 X0.4111675126903553 Y5.512690355329949
G1 X2.2411167512690353 Y10.51269035532995
G1 X0.4111675126903553 Y15.51269035532995
G1 X3.4923857868020303 Y14.842639593908629
G1 X4.741116751269035 Y20.512690355329948
M5
G0 X4.741116751269035 Y20.51243654822335
G1 Z4 F50
G1 X5.99238578680203 Y14.842639593908629 F50
G1 X9.071065989847716 Y15.51269035532995
G1 X7.241116751269035 Y10.51269035532995
G1 X9.071065989847716 Y5.512690355329949
G1 X5.99238578680203 Y6.182741116751269
G1 X4.741116751269035 Y0.5126903553299492
G1 X3.4923857868020303 Y6.182741116751269
G1 X0.4111675126903553 Y5.512690355329949
G1 X2.2411167512690353 Y10.51269035532995
G1 X0.4111675126903553 Y15.51269035532995
G1 X3.4923857868020303 Y14.842639593908629
G1 X4.741116751269035 Y20.512690355329948
M5
G0 X4.741116751269035 Y20.51243654822335
G1 Z4.5 F50
G1 X5.99238578680203 Y14.842639593908629 F50
G1 X9.071065989847716 Y15.51269035532995
G1 X7.241116751269035 Y10.51269035532995
G1 X9.071065989847716 Y5.512690355329949
G1 X5.99238578680203 Y6.182741116751269
G1 X4.741116751269035 Y0.5126903553299492
G1 X3.4923857868020303 Y6.182741116751269
G1 X0.4111675126903553 Y5.512690355329949
G1 X2.2411167512690353 Y10.51269035532995
G1 X0.4111675126903553 Y15.51269035532995
G1 X3.4923857868020303 Y14.842639593908629
G1 X4.741116751269035 Y20.512690355329948
M5
G0 X4.741116751269035 Y20.51243654822335
G1 Z5 F50
G1 X5.99238578680203 Y14.842639593908629 F50
G1 X9.071065989847716 Y15.51269035532995
G1 X7.241116751269035 Y10.51269035532995
G1 X9.071065989847716 Y5.512690355329949
G1 X5.99238578680203 Y6.182741116751269
G1 X4.741116751269035 Y0.5126903553299492
G1 X3.4923857868020303 Y6.182741116751269
G1 X0.4111675126903553 Y5.512690355329949
G1 X2.2411167512690353 Y10.51269035532995
G1 X0.4111675126903553 Y15.51269035532995
G1 X3.4923857868020303 Y14.842639593908629
G1 X4.741116751269035 Y20.512690355329948
M5
G0 X4.741116751269035 Y20.51243654822335
G1 Z5.5 F50
G1 X5.99238578680203 Y14.842639593908629 F50
G1 X9.071065989847716 Y15.51269035532995
G1 X7.241116751269035 Y10.51269035532995
G1 X9.071065989847716 Y5.512690355329949
G1 X5.99238578680203 Y6.182741116751269
G1 X4.741116751269035 Y0.5126903553299492
G1 X3.4923857868020303 Y6.182741116751269
G1 X0.4111675126903553 Y5.512690355329949
G1 X2.2411167512690353 Y10.51269035532995
G1 X0.4111675126903553 Y15.51269035532995
G1 X3.4923857868020303 Y14.842639593908629
G1 X4.741116751269035 Y20.512690355329948
M5
G0 X4.741116751269035 Y20.51243654822335
G1 Z6 F50
G1 X5.99238578680203 Y14.842639593908629 F50
G1 X9.071065989847716 Y15.51269035532995
G1 X7.241116751269035 Y10.51269035532995
G1 X9.071065989847716 Y5.512690355329949
G1 X5.99238578680203 Y6.182741116751269
G1 X4.741116751269035 Y0.5126903553299492
G1 X3.4923857868020303 Y6.182741116751269
G1 X0.4111675126903553 Y5.512690355329949
G1 X2.2411167512690353 Y10.51269035532995
G1 X0.4111675126903553 Y15.51269035532995
G1 X3.4923857868020303 Y14.842639593908629
G1 X4.741116751269035 Y20.512690355329948
M5
G0 X4.741116751269035 Y20.51243654822335
G1 Z6.5 F50
G1 X5.99238578680203 Y14.842639593908629 F50
G1 X9.071065989847716 Y15.51269035532995
G1 X7.241116751269035 Y10.51269035532995
G1 X9.071065989847716 Y5.512690355329949
G1 X5.99238578680203 Y6.182741116751269
G1 X4.741116751269035 Y0.5126903553299492
G1 X3.4923857868020303 Y6.182741116751269
G1 X0.4111675126903553 Y5.512690355329949
G1 X2.2411167512690353 Y10.51269035532995
G1 X0.4111675126903553 Y15.51269035532995
G1 X3.4923857868020303 Y14.842639593908629
G1 X4.741116751269035 Y20.512690355329948
M5
G0 X4.741116751269035 Y20.51243654822335
G1 Z7 F50
G1 X5.99238578680203 Y14.842639593908629 F50
G1 X9.071065989847716 Y15.51269035532995
G1 X7.241116751269035 Y10.51269035532995
G1 X9.071065989847716 Y5.512690355329949
G1 X5.99238578680203 Y6.182741116751269
G1 X4.741116751269035 Y0.5126903553299492
G1 X3.4923857868020303 Y6.182741116751269
G1 X0.4111675126903553 Y5.512690355329949
G1 X2.2411167512690353 Y10.51269035532995
G1 X0.4111675126903553 Y15.51269035532995
G1 X3.4923857868020303 Y14.842639593908629
G1 X4.741116751269035 Y20.512690355329948
M5
G0 X4.741116751269035 Y20.51243654822335
G1 Z7.5 F50
G1 X5.99238578680203 Y14.842639593908629 F50
G1 X9.071065989847716 Y15.51269035532995
G1 X7.241116751269035 Y10.51269035532995
G1 X9.071065989847716 Y5.512690355329949
G1 X5.99238578680203 Y6.182741116751269
G1 X4.741116751269035 Y0.5126903553299492
G1 X3.4923857868020303 Y6.182741116751269
G1 X0.4111675126903553 Y5.512690355329949
G1 X2.2411167512690353 Y10.51269035532995
G1 X0.4111675126903553 Y15.51269035532995
G1 X3.4923857868020303 Y14.842639593908629
G1 X4.741116751269035 Y20.512690355329948
M5
G0 X4.741116751269035 Y20.51243654822335
G1 Z8 F50
G1 X5.99238578680203 Y14.842639593908629 F50
G1 X9.071065989847716 Y15.51269035532995
G1 X7.241116751269035 Y10.51269035532995
G1 X9.071065989847716 Y5.512690355329949
G1 X5.99238578680203 Y6.182741116751269
G1 X4.741116751269035 Y0.5126903553299492
G1 X3.4923857868020303 Y6.182741116751269
G1 X0.4111675126903553 Y5.512690355329949
G1 X2.2411167512690353 Y10.51269035532995
G1 X0.4111675126903553 Y15.51269035532995
G1 X3.4923857868020303 Y14.842639593908629
G1 X4.741116751269035 Y20.512690355329948
M5
G0 X4.741116751269035 Y20.51243654822335
G1 Z8.5 F50
G1 X5.99238578680203 Y14.842639593908629 F50
G1 X9.071065989847716 Y15.51269035532995
G1 X7.241116751269035 Y10.51269035532995
G1 X9.071065989847716 Y5.512690355329949
G1 X5.99238578680203 Y6.182741116751269
G1 X4.741116751269035 Y0.5126903553299492
G1 X3.4923857868020303 Y6.182741116751269
G1 X0.4111675126903553 Y5.512690355329949
G1 X2.2411167512690353 Y10.51269035532995
G1 X0.4111675126903553 Y15.51269035532995
G1 X3.4923857868020303 Y14.842639593908629
G1 X4.741116751269035 Y20.512690355329948
M5
G0 X4.741116751269035 Y20.51243654822335
G1 Z9 F50
G1 X5.99238578680203 Y14.842639593908629 F50
G1 X9.071065989847716 Y15.51269035532995
G1 X7.241116751269035 Y10.51269035532995
G1 X9.071065989847716 Y5.512690355329949
G1 X5.99238578680203 Y6.182741116751269
G1 X4.741116751269035 Y0.5126903553299492
G1 X3.4923857868020303 Y6.182741116751269
G1 X0.4111675126903553 Y5.512690355329949
G1 X2.2411167512690353 Y10.51269035532995
G1 X0.4111675126903553 Y15.51269035532995
G1 X3.4923857868020303 Y14.842639593908629
G1 X4.741116751269035 Y20.512690355329948
M5
G0 X4.741116751269035 Y20.51243654822335
G1 Z9.5 F50
G1 X5.99238578680203 Y14.842639593908629 F50
G1 X9.071065989847716 Y15.51269035532995
G1 X7.241116751269035 Y10.51269035532995
G1 X9.071065989847716 Y5.512690355329949
G1 X5.99238578680203 Y6.182741116751269
G1 X4.741116751269035 Y0.5126903553299492
G1 X3.4923857868020303 Y6.182741116751269
G1 X0.4111675126903553 Y5.512690355329949
G1 X2.2411167512690353 Y10.51269035532995
G1 X0.4111675126903553 Y15.51269035532995
G1 X3.4923857868020303 Y14.842639593908629
G1 X4.741116751269035 Y20.512690355329948
M5
G0 X4.741116751269035 Y20.51243654822335
G1 Z10 F50
G1 X5.99238578680203 Y14.842639593908629 F50
G1 X9.071065989847716 Y15.51269035532995
G1 X7.241116751269035 Y10.51269035532995
G1 X9.071065989847716 Y5.512690355329949
G1 X5.99238578680203 Y6.182741116751269
G1 X4.741116751269035 Y0.5126903553299492
G1 X3.4923857868020303 Y6.182741116751269
G1 X0.4111675126903553 Y5.512690355329949
G1 X2.2411167512690353 Y10.51269035532995
G1 X0.4111675126903553 Y15.51269035532995
G1 X3.4923857868020303 Y14.842639593908629
G1 X4.741116751269035 Y20.512690355329948
M5
M5
M30
