(Generated by PartKam Version 0.05)

G21 G90 G40

(follow path 1)
T0 M6
G17
G1 X6.203045685279188 Y19.00507614213198 F50
G1 X9.284263959390863 Y19.83502538071066
G1 X7.451776649746193 Y13.637055837563452
G1 X9.284263959390863 Y7.436548223350253
G1 X6.203045685279188 Y8.266497461928935
G1 X4.951776649746193 Y1.236040609137056
G1 X3.7030456852791875 Y8.266497461928935
G1 X0.6218274111675127 Y7.436548223350253
G1 X2.451776649746193 Y13.637055837563452
G1 X0.6218274111675127 Y19.83502538071066
G1 X3.7030456852791875 Y19.00507614213198
G1 X4.951776649746193 Y26.03553299492386
G1 X6.203045685279188 Y19.00507614213198

