(Generated by PartKam Version 0.05)

G21 G90 G40

(follow path 1)
G0 Z0
T0 M6
G17

G0 X4.9530456852791875 Y26.036040609137057
G1 Z0.5 F50
M3
G1 X6.203045685279188 Y19.00507614213198 F50
G1 X9.284263959390863 Y19.83502538071066
G1 X7.451776649746193 Y13.637055837563452
G1 X9.284263959390863 Y7.436548223350253
G1 X6.203045685279188 Y8.266497461928935
G1 X4.951776649746193 Y1.236040609137056
G1 X3.7030456852791875 Y8.266497461928935
G1 X0.6218274111675127 Y7.436548223350253
G1 X2.451776649746193 Y13.637055837563452
G1 X0.6218274111675127 Y19.83502538071066
G1 X3.7030456852791875 Y19.00507614213198
G1 X4.951776649746193 Y26.03553299492386
M5
G0 X4.9530456852791875 Y26.036040609137057
G1 Z1 F50
G1 X6.203045685279188 Y19.00507614213198 F50
G1 X9.284263959390863 Y19.83502538071066
G1 X7.451776649746193 Y13.637055837563452
G1 X9.284263959390863 Y7.436548223350253
G1 X6.203045685279188 Y8.266497461928935
G1 X4.951776649746193 Y1.236040609137056
G1 X3.7030456852791875 Y8.266497461928935
G1 X0.6218274111675127 Y7.436548223350253
G1 X2.451776649746193 Y13.637055837563452
G1 X0.6218274111675127 Y19.83502538071066
G1 X3.7030456852791875 Y19.00507614213198
G1 X4.951776649746193 Y26.03553299492386
M5
G0 X4.9530456852791875 Y26.036040609137057
G1 Z1.5 F50
G1 X6.203045685279188 Y19.00507614213198 F50
G1 X9.284263959390863 Y19.83502538071066
G1 X7.451776649746193 Y13.637055837563452
G1 X9.284263959390863 Y7.436548223350253
G1 X6.203045685279188 Y8.266497461928935
G1 X4.951776649746193 Y1.236040609137056
G1 X3.7030456852791875 Y8.266497461928935
G1 X0.6218274111675127 Y7.436548223350253
G1 X2.451776649746193 Y13.637055837563452
G1 X0.6218274111675127 Y19.83502538071066
G1 X3.7030456852791875 Y19.00507614213198
G1 X4.951776649746193 Y26.03553299492386
M5
G0 X4.9530456852791875 Y26.036040609137057
G1 Z2 F50
G1 X6.203045685279188 Y19.00507614213198 F50
G1 X9.284263959390863 Y19.83502538071066
G1 X7.451776649746193 Y13.637055837563452
G1 X9.284263959390863 Y7.436548223350253
G1 X6.203045685279188 Y8.266497461928935
G1 X4.951776649746193 Y1.236040609137056
G1 X3.7030456852791875 Y8.266497461928935
G1 X0.6218274111675127 Y7.436548223350253
G1 X2.451776649746193 Y13.637055837563452
G1 X0.6218274111675127 Y19.83502538071066
G1 X3.7030456852791875 Y19.00507614213198
G1 X4.951776649746193 Y26.03553299492386
M5
G0 X4.9530456852791875 Y26.036040609137057
G1 Z2.5 F50
G1 X6.203045685279188 Y19.00507614213198 F50
G1 X9.284263959390863 Y19.83502538071066
G1 X7.451776649746193 Y13.637055837563452
G1 X9.284263959390863 Y7.436548223350253
G1 X6.203045685279188 Y8.266497461928935
G1 X4.951776649746193 Y1.236040609137056
G1 X3.7030456852791875 Y8.266497461928935
G1 X0.6218274111675127 Y7.436548223350253
G1 X2.451776649746193 Y13.637055837563452
G1 X0.6218274111675127 Y19.83502538071066
G1 X3.7030456852791875 Y19.00507614213198
G1 X4.951776649746193 Y26.03553299492386
M5
G0 X4.9530456852791875 Y26.036040609137057
G1 Z3 F50
G1 X6.203045685279188 Y19.00507614213198 F50
G1 X9.284263959390863 Y19.83502538071066
G1 X7.451776649746193 Y13.637055837563452
G1 X9.284263959390863 Y7.436548223350253
G1 X6.203045685279188 Y8.266497461928935
G1 X4.951776649746193 Y1.236040609137056
G1 X3.7030456852791875 Y8.266497461928935
G1 X0.6218274111675127 Y7.436548223350253
G1 X2.451776649746193 Y13.637055837563452
G1 X0.6218274111675127 Y19.83502538071066
G1 X3.7030456852791875 Y19.00507614213198
G1 X4.951776649746193 Y26.03553299492386
M5
G0 X4.9530456852791875 Y26.036040609137057
G1 Z3.5 F50
G1 X6.203045685279188 Y19.00507614213198 F50
G1 X9.284263959390863 Y19.83502538071066
G1 X7.451776649746193 Y13.637055837563452
G1 X9.284263959390863 Y7.436548223350253
G1 X6.203045685279188 Y8.266497461928935
G1 X4.951776649746193 Y1.236040609137056
G1 X3.7030456852791875 Y8.266497461928935
G1 X0.6218274111675127 Y7.436548223350253
G1 X2.451776649746193 Y13.637055837563452
G1 X0.6218274111675127 Y19.83502538071066
G1 X3.7030456852791875 Y19.00507614213198
G1 X4.951776649746193 Y26.03553299492386
M5
G0 X4.9530456852791875 Y26.036040609137057
G1 Z4 F50
G1 X6.203045685279188 Y19.00507614213198 F50
G1 X9.284263959390863 Y19.83502538071066
G1 X7.451776649746193 Y13.637055837563452
G1 X9.284263959390863 Y7.436548223350253
G1 X6.203045685279188 Y8.266497461928935
G1 X4.951776649746193 Y1.236040609137056
G1 X3.7030456852791875 Y8.266497461928935
G1 X0.6218274111675127 Y7.436548223350253
G1 X2.451776649746193 Y13.637055837563452
G1 X0.6218274111675127 Y19.83502538071066
G1 X3.7030456852791875 Y19.00507614213198
G1 X4.951776649746193 Y26.03553299492386
M5
G0 X4.9530456852791875 Y26.036040609137057
G1 Z4.5 F50
G1 X6.203045685279188 Y19.00507614213198 F50
G1 X9.284263959390863 Y19.83502538071066
G1 X7.451776649746193 Y13.637055837563452
G1 X9.284263959390863 Y7.436548223350253
G1 X6.203045685279188 Y8.266497461928935
G1 X4.951776649746193 Y1.236040609137056
G1 X3.7030456852791875 Y8.266497461928935
G1 X0.6218274111675127 Y7.436548223350253
G1 X2.451776649746193 Y13.637055837563452
G1 X0.6218274111675127 Y19.83502538071066
G1 X3.7030456852791875 Y19.00507614213198
G1 X4.951776649746193 Y26.03553299492386
M5
G0 X4.9530456852791875 Y26.036040609137057
G1 Z5 F50
G1 X6.203045685279188 Y19.00507614213198 F50
G1 X9.284263959390863 Y19.83502538071066
G1 X7.451776649746193 Y13.637055837563452
G1 X9.284263959390863 Y7.436548223350253
G1 X6.203045685279188 Y8.266497461928935
G1 X4.951776649746193 Y1.236040609137056
G1 X3.7030456852791875 Y8.266497461928935
G1 X0.6218274111675127 Y7.436548223350253
G1 X2.451776649746193 Y13.637055837563452
G1 X0.6218274111675127 Y19.83502538071066
G1 X3.7030456852791875 Y19.00507614213198
G1 X4.951776649746193 Y26.03553299492386
M5
G0 X4.9530456852791875 Y26.036040609137057
G1 Z5.5 F50
G1 X6.203045685279188 Y19.00507614213198 F50
G1 X9.284263959390863 Y19.83502538071066
G1 X7.451776649746193 Y13.637055837563452
G1 X9.284263959390863 Y7.436548223350253
G1 X6.203045685279188 Y8.266497461928935
G1 X4.951776649746193 Y1.236040609137056
G1 X3.7030456852791875 Y8.266497461928935
G1 X0.6218274111675127 Y7.436548223350253
G1 X2.451776649746193 Y13.637055837563452
G1 X0.6218274111675127 Y19.83502538071066
G1 X3.7030456852791875 Y19.00507614213198
G1 X4.951776649746193 Y26.03553299492386
M5
G0 X4.9530456852791875 Y26.036040609137057
G1 Z6 F50
G1 X6.203045685279188 Y19.00507614213198 F50
G1 X9.284263959390863 Y19.83502538071066
G1 X7.451776649746193 Y13.637055837563452
G1 X9.284263959390863 Y7.436548223350253
G1 X6.203045685279188 Y8.266497461928935
G1 X4.951776649746193 Y1.236040609137056
G1 X3.7030456852791875 Y8.266497461928935
G1 X0.6218274111675127 Y7.436548223350253
G1 X2.451776649746193 Y13.637055837563452
G1 X0.6218274111675127 Y19.83502538071066
G1 X3.7030456852791875 Y19.00507614213198
G1 X4.951776649746193 Y26.03553299492386
M5
G0 X4.9530456852791875 Y26.036040609137057
G1 Z6.5 F50
G1 X6.203045685279188 Y19.00507614213198 F50
G1 X9.284263959390863 Y19.83502538071066
G1 X7.451776649746193 Y13.637055837563452
G1 X9.284263959390863 Y7.436548223350253
G1 X6.203045685279188 Y8.266497461928935
G1 X4.951776649746193 Y1.236040609137056
G1 X3.7030456852791875 Y8.266497461928935
G1 X0.6218274111675127 Y7.436548223350253
G1 X2.451776649746193 Y13.637055837563452
G1 X0.6218274111675127 Y19.83502538071066
G1 X3.7030456852791875 Y19.00507614213198
G1 X4.951776649746193 Y26.03553299492386
M5
G0 X4.9530456852791875 Y26.036040609137057
G1 Z7 F50
G1 X6.203045685279188 Y19.00507614213198 F50
G1 X9.284263959390863 Y19.83502538071066
G1 X7.451776649746193 Y13.637055837563452
G1 X9.284263959390863 Y7.436548223350253
G1 X6.203045685279188 Y8.266497461928935
G1 X4.951776649746193 Y1.236040609137056
G1 X3.7030456852791875 Y8.266497461928935
G1 X0.6218274111675127 Y7.436548223350253
G1 X2.451776649746193 Y13.637055837563452
G1 X0.6218274111675127 Y19.83502538071066
G1 X3.7030456852791875 Y19.00507614213198
G1 X4.951776649746193 Y26.03553299492386
M5
G0 X4.9530456852791875 Y26.036040609137057
G1 Z7.5 F50
G1 X6.203045685279188 Y19.00507614213198 F50
G1 X9.284263959390863 Y19.83502538071066
G1 X7.451776649746193 Y13.637055837563452
G1 X9.284263959390863 Y7.436548223350253
G1 X6.203045685279188 Y8.266497461928935
G1 X4.951776649746193 Y1.236040609137056
G1 X3.7030456852791875 Y8.266497461928935
G1 X0.6218274111675127 Y7.436548223350253
G1 X2.451776649746193 Y13.637055837563452
G1 X0.6218274111675127 Y19.83502538071066
G1 X3.7030456852791875 Y19.00507614213198
G1 X4.951776649746193 Y26.03553299492386
M5
G0 X4.9530456852791875 Y26.036040609137057
G1 Z8 F50
G1 X6.203045685279188 Y19.00507614213198 F50
G1 X9.284263959390863 Y19.83502538071066
G1 X7.451776649746193 Y13.637055837563452
G1 X9.284263959390863 Y7.436548223350253
G1 X6.203045685279188 Y8.266497461928935
G1 X4.951776649746193 Y1.236040609137056
G1 X3.7030456852791875 Y8.266497461928935
G1 X0.6218274111675127 Y7.436548223350253
G1 X2.451776649746193 Y13.637055837563452
G1 X0.6218274111675127 Y19.83502538071066
G1 X3.7030456852791875 Y19.00507614213198
G1 X4.951776649746193 Y26.03553299492386
M5
G0 X4.9530456852791875 Y26.036040609137057
G1 Z8.5 F50
G1 X6.203045685279188 Y19.00507614213198 F50
G1 X9.284263959390863 Y19.83502538071066
G1 X7.451776649746193 Y13.637055837563452
G1 X9.284263959390863 Y7.436548223350253
G1 X6.203045685279188 Y8.266497461928935
G1 X4.951776649746193 Y1.236040609137056
G1 X3.7030456852791875 Y8.266497461928935
G1 X0.6218274111675127 Y7.436548223350253
G1 X2.451776649746193 Y13.637055837563452
G1 X0.6218274111675127 Y19.83502538071066
G1 X3.7030456852791875 Y19.00507614213198
G1 X4.951776649746193 Y26.03553299492386
M5
G0 X4.9530456852791875 Y26.036040609137057
G1 Z9 F50
G1 X6.203045685279188 Y19.00507614213198 F50
G1 X9.284263959390863 Y19.83502538071066
G1 X7.451776649746193 Y13.637055837563452
G1 X9.284263959390863 Y7.436548223350253
G1 X6.203045685279188 Y8.266497461928935
G1 X4.951776649746193 Y1.236040609137056
G1 X3.7030456852791875 Y8.266497461928935
G1 X0.6218274111675127 Y7.436548223350253
G1 X2.451776649746193 Y13.637055837563452
G1 X0.6218274111675127 Y19.83502538071066
G1 X3.7030456852791875 Y19.00507614213198
G1 X4.951776649746193 Y26.03553299492386
M5
G0 X4.9530456852791875 Y26.036040609137057
G1 Z9.5 F50
G1 X6.203045685279188 Y19.00507614213198 F50
G1 X9.284263959390863 Y19.83502538071066
G1 X7.451776649746193 Y13.637055837563452
G1 X9.284263959390863 Y7.436548223350253
G1 X6.203045685279188 Y8.266497461928935
G1 X4.951776649746193 Y1.236040609137056
G1 X3.7030456852791875 Y8.266497461928935
G1 X0.6218274111675127 Y7.436548223350253
G1 X2.451776649746193 Y13.637055837563452
G1 X0.6218274111675127 Y19.83502538071066
G1 X3.7030456852791875 Y19.00507614213198
G1 X4.951776649746193 Y26.03553299492386
M5
G0 X4.9530456852791875 Y26.036040609137057
G1 Z10 F50
G1 X6.203045685279188 Y19.00507614213198 F50
G1 X9.284263959390863 Y19.83502538071066
G1 X7.451776649746193 Y13.637055837563452
G1 X9.284263959390863 Y7.436548223350253
G1 X6.203045685279188 Y8.266497461928935
G1 X4.951776649746193 Y1.236040609137056
G1 X3.7030456852791875 Y8.266497461928935
G1 X0.6218274111675127 Y7.436548223350253
G1 X2.451776649746193 Y13.637055837563452
G1 X0.6218274111675127 Y19.83502538071066
G1 X3.7030456852791875 Y19.00507614213198
G1 X4.951776649746193 Y26.03553299492386
M5
M5
M30
